!!!!SEGMENT: pl-sa--235-a-vi-39--003_toeschi-carl-joseph--sinfonia-ex-dis-presto.krn
!!!cenid: 17xx:668
!!!COM: Toeschi, Carl Joseph
!!!COM-rismid: pe30003139
!!!CDT: 1731-1788
!!!CNT: Italian
!!!OPR: Sinfonia ex Dis
!!!OTL: Presto
!!!OMV: 003
!!!PDT:
!!!AGN: Secular
!!!SMS-siglum: PL-SA
!!!SMS-shelfmark: 235/A VI 39
!!!SMS-shelfwork: 001-003 M
!!!SMS-variant:
!!!SMS-altvar:
!!!NIFC-rismid: 1001035307
!!!URL-scan: http://bc.bdsandomierz.pl/dlibra/publication/1588/edition/1556/content
!!!ONB-nifc: UWAGA: części Sinfonii: Allegro, Andante, Presto. Uwaga: Andante jako „Adagio” w vl I.
!!!AIN: 2 cor 1 empty 2 flt 1 viola 2 violn
!!!key:
**kern	**dynam	**kern	**dynam	**kern	**dynam	**kern	**dynam	**kern	**dynam	**kern	**dynam	**kern	**dynam	**kern	**dynam
*part8	*part8	*part7	*part7	*part6	*part6	*part5	*part5	*part4	*part4	*part3	*part3	*part2	*part2	*part1	*part1
*staff8	*	*staff7	*	*staff6	*	*staff5	*	*staff4	*	*staff3	*	*staff2	*	*staff1	*
*Iempty	*	*Iviola	*	*Ivioln	*	*Ivioln	*	*Icor	*	*Icor	*	*Iflt	*	*Iflt	*
*I"Baſso	*	*I"Alto Viola	*	*I"Violino Secundo	*	*I"Violino Primo	*	*I"Corno 2do	*	*I"Corno 1mo	*	*I"Flauto Secundo	*	*I"Flauto 1mo	*
*I'Vc.	*	*I'Va	*	*I'Vn II	*	*I'Vn I	*	*I'C. II	*	*I'C. I	*	*I'Fl. II	*	*I'Fl. I	*
*clefF4	*	*clefC3	*	*clefG2	*	*clefG2	*	*clefG2	*	*clefG2	*	*clefG2	*	*clefG2	*
*	*	*	*	*	*	*	*	*ITrd5c9	*	*ITrd5c9	*	*	*	*	*
*k[b-e-a-]	*	*k[b-e-a-]	*	*k[b-e-a-]	*	*k[b-e-a-]	*	*k[b-e-a-]	*	*k[b-e-a-]	*	*k[b-e-a-]	*	*k[b-e-a-]	*
*E-:	*	*E-:	*	*E-:	*	*E-:	*	*E-:	*	*E-:	*	*E-:	*	*E-:	*
*M2/4	*	*M2/4	*	*M2/4	*	*M2/4	*	*M2/4	*	*M2/4	*	*M2/4	*	*M2/4	*
=1	=1	=1	=1	=1	=1	=1	=1	=1	=1	=1	=1	=1	=1	=1	=1
*	*	*	*	*	*	*	*	*	*	*2\right	*	*	*	*	*
!	!	!LO:SIC:o=:v:źle wpisane znaki	!	!	!	!	!	!	!	!	!	!	!	!LO:TX:a:t=P:każde ` to nie ^ tylko | (plik sprzed wytycznych)	!
!LO:SIC:s:o=:v: caudy z prawej strony	!	!LO:SIC:s:o=:v: caudy z prawej strony	!LO:DY:a	!LO:SIC:s:o=:v: caudy z prawej strony	!	!LO:SIC:s:o=:v: caudy z prawej strony	!	!LO:SIC:s:o=:v: causy z prawej strony	!	!LO:SIC:s:o=:v: caudy z prawej strony	!	!LO:SIC:s:o=:v: caudy z prawej strony	!	!LO:SIC:s:o=:v:wszystkie caudy z prawej strony	!
8E-\L	f	8e-\L	f	4G/ 4e-/	.	4.G/ 4.e-/	.	2G/	.	2e-\	.	4ee-\	.	4.ee-\	f
8E-\	.	8e-\	.	.	.	.	.	.	.	.	.	.	.	.	.
8E-\	p	8e-\	p	4r	.	.	.	.	.	.	.	4r	.	.	.
8E-\J	.	8e-\J	.	.	.	8B-/	.	.	.	.	.	.	.	8b-\	p
=2	=2	=2	=2	=2	=2	=2	=2	=2	=2	=2	=2	=2	=2	=2	=2
*	*	*2\right	*	*	*	*	*	*	*	*	*	*	*	*	*
*	*	*tremolo	*	*	*	*	*	*	*	*	*	*	*	*	*
!	!	!	!	!LO:TX:a:t=7	!	!	!	!LO:TX:a:t=3	!	!LO:TX:a:t=3	!	!LO:N:vis=00	!	!	!
!	!	!	!	!LO:N:vis=00	!	!	!	!LO:N:vis=0	!	!LO:N:vis=0	!	!	!	!	!
8E-\L	.	8e-\L	.	0r	.	8e-`/L	.	1r	.	1r	.	0r	.	8ee-'\L	.
8E-\	.	8e-\	.	.	.	8f`/	.	.	.	.	.	.	.	8ff'\	.
8E-\	.	8e-\	.	.	.	8g`/	.	.	.	.	.	.	.	8gg'\	.
8E-\J	.	8e-\J	.	.	.	8a-`/J	.	.	.	.	.	.	.	8aa-'\J	.
=3	=3	=3	=3	=3	=3	=3	=3	=3	=3	=3	=3	=3	=3	=3	=3
*2\right	*	*	*	*	*	*	*	*	*	*	*	*	*	*	*
*tremolo	*	*	*	*	*	*	*	*	*	*	*	*	*	*	*
8E-\L	.	8e-\L	.	.	.	4g`/	.	.	.	.	.	.	.	8gg\	.
8E-\	.	8e-\	.	.	.	.	.	.	.	.	.	.	.	8r	.
8E-\	.	8e-\	.	.	.	(32f/LLL	.	.	.	.	.	.	.	4r	.
.	.	.	.	.	.	32g/JJ	.	.	.	.	.	.	.	.	.
.	.	.	.	.	.	8.a-/J)	.	.	.	.	.	.	.	.	.
8E-\J	.	8e-\J	.	.	.	.	.	.	.	.	.	.	.	.	.
=4	=4	=4	=4	=4	=4	=4	=4	=4	=4	=4	=4	=4	=4	=4	=4
8E-\L	.	8e-\L	.	.	.	(32g/LLL	.	2r	.	2r	.	.	.	2r	.
.	.	.	.	.	.	32f/JJ	.	.	.	.	.	.	.	.	.
.	.	.	.	.	.	8.e-/J)	.	.	.	.	.	.	.	.	.
8E-\	.	8e-\	.	.	.	.	.	.	.	.	.	.	.	.	.
8E-\	.	8e-\	.	.	.	4r	.	.	.	.	.	.	.	.	.
8E-\J	.	8e-\J	.	.	.	.	.	.	.	.	.	.	.	.	.
*Xtremolo	*	*	*	*	*	*	*	*	*	*	*	*	*	*	*
=5	=5	=5	=5	=5	=5	=5	=5	=5	=5	=5	=5	=5	=5	=5	=5
8E-\L	.	8e-\L	fp	.	.	4.G/ 4.e-/	f	2G/	f	2e-\	f	.	.	4.ee-\	f
8E-\	f	8e-\	.	.	.	.	.	.	.	.	.	.	.	.	.
8E-\	.	8e-\	.	.	.	.	.	.	.	.	.	.	.	.	.
8E-\J	p	8e-\J	.	.	.	8B-/	.	.	.	.	.	.	.	8b-\	p
=6	=6	=6	=6	=6	=6	=6	=6	=6	=6	=6	=6	=6	=6	=6	=6
*tremolo	*	*	*	*	*	*	*	*	*	*	*	*	*	*	*
!	!	!	!	!	!	!	!LO:DY:a	!LO:TX:a:t=3	!	!	!	!LO:N:vis=0	!	!	!
!	!	!	!	!LO:N:vis=0	!	!	!	!LO:N:vis=0	!	!LO:N:vis=00	!	!	!	!	!
8E-\L	.	8e-\L	.	1r	.	8e-/L	p	1r	.	1r	.	1r	.	8ee-`\L	.
8E-\	.	8e-\	.	.	.	8f`/	.	.	.	.	.	.	.	8ff`\	.
8E-\	.	8e-\	.	.	.	8g`/	.	.	.	.	.	.	.	8gg`\	.
8E-\J	.	8e-\J	.	.	.	8a-`/J	.	.	.	.	.	.	.	8aa-`\J	.
!	!	!	!	!	!	!LO:LB:g=original	!	!	!	!	!	!	!	!	!
=7	=7	=7	=7	=7	=7	=7	=7	=7	=7	=7	=7	=7	=7	=7	=7
8E-\L	.	8e-\L	.	.	.	4g`/	.	.	.	.	.	.	.	8gg\	.
8E-\	.	8e-\	.	.	.	.	.	.	.	.	.	.	.	8r	.
8E-\	.	8e-\	.	.	.	(32f/LLL	.	.	.	.	.	.	.	4r	.
.	.	.	.	.	.	32g/JJ	.	.	.	.	.	.	.	.	.
.	.	.	.	.	.	8.a-/J)	.	.	.	.	.	.	.	.	.
8E-\J	.	8e-\J	.	.	.	.	.	.	.	.	.	.	.	.	.
=8	=8	=8	=8	=8	=8	=8	=8	=8	=8	=8	=8	=8	=8	=8	=8
8E-\L	.	8e-\L	.	2r	.	(32g/LLL	.	2r	.	2r	.	2r	.	2r	.
.	.	.	.	.	.	32f/JJ	.	.	.	.	.	.	.	.	.
.	.	.	.	.	.	8.e-/J)	.	.	.	.	.	.	.	.	.
8E-\	.	8e-\	.	.	.	.	.	.	.	.	.	.	.	.	.
8E-\	.	8e-\	.	.	.	4r	.	.	.	.	.	.	.	.	.
8E-\J	.	8e-\J	.	.	.	.	.	.	.	.	.	.	.	.	.
*Xtremolo	*	*	*	*	*	*	*	*	*	*	*	*	*	*	*
=9	=9	=9	=9	=9	=9	=9	=9	=9	=9	=9	=9	=9	=9	=9	=9
8E-\L	.	8e-\L	fp	4.G/ 4.e-/	f	4.B-/ 4.g/	f	2G/	f	2e-\	.	4.ee-\	.	4.gg\	f
8E-\	f	8e-\	.	.	.	.	.	.	.	.	.	.	.	.	.
8E-\	p	8e-\	.	.	.	.	.	.	.	.	.	.	.	.	.
8E-\J	.	8e-\J	.	8B-/	p	8e-/	p	.	.	.	.	8b-\	.	8ee-\	p
!LO:LB:g=original	!	!	!	!	!	!	!	!	!	!	!	!	!	!	!
=10	=10	=10	=10	=10	=10	=10	=10	=10	=10	=10	=10	=10	=10	=10	=10
*tremolo	*	*	*	*	*	*	*	*	*	*	*	*	*	*	*
!	!	!	!	!	!	!	!	!LO:TX:a:t=3	!	!	!	!	!	!	!
!	!	!	!	!	!	!	!	!LO:N:vis=0	!	!LO:N:vis=0	!	!	!	!	!
8E-\L	.	8e-\L	.	8e-`/L	.	8g`/L	.	1r	.	1r	.	8ee-`\L	.	8gg`\L	.
8E-\	.	8e-\	.	8f`/	.	8a-`/	.	.	.	.	.	8ff`\	.	8aa-`\	.
8E-\	.	8e-\	.	8g`/	.	8b-`/	.	.	.	.	.	8gg`\	.	8bb-`\	.
8E-\J	.	8e-\J	.	8a-`/J	.	8cc`/J	.	.	.	.	.	8aa-`\J	.	8ccc`\J	.
!	!	!LO:LB:g=original	!	!	!	!	!	!	!	!	!	!	!	!LO:LB:g=original	!
=11	=11	=11	=11	=11	=11	=11	=11	=11	=11	=11	=11	=11	=11	=11	=11
8E-\L	.	8e-\L	.	4g/	.	4b-`\	.	.	.	.	.	8gg\	.	8bb-\	.
8E-\	.	8e-\	.	.	.	.	.	.	.	.	.	8r	.	8r	.
8E-\	.	8e-\	.	32f/LLL	.	(32a-\LLL	.	.	.	.	.	4r	.	4r	.
.	.	.	.	32g/JJ	.	32b-\JJ	.	.	.	.	.	.	.	.	.
.	.	.	.	8.a-/J	.	8.cc\J)	.	.	.	.	.	.	.	.	.
8E-\J	.	8e-\J	.	.	.	.	.	.	.	.	.	.	.	.	.
=12	=12	=12	=12	=12	=12	=12	=12	=12	=12	=12	=12	=12	=12	=12	=12
8E-\L	.	8e-\L	.	32g/LLL	.	(32b-\LLL	.	2r	.	2r	.	2r	.	2r	.
.	.	.	.	32f/JJ	.	32a-\JJ	.	.	.	.	.	.	.	.	.
.	.	.	.	8.e-/J	.	8.g\J)	.	.	.	.	.	.	.	.	.
8E-\	.	8e-\	.	.	.	.	.	.	.	.	.	.	.	.	.
8E-\	.	8e-\	.	4r	.	4r	.	.	.	.	.	.	.	.	.
8E-\J	.	8e-\J	.	.	.	.	.	.	.	.	.	.	.	.	.
*Xtremolo	*	*	*	*	*	*	*	*	*	*	*	*	*	*	*
=13	=13	=13	=13	=13	=13	=13	=13	=13	=13	=13	=13	=13	=13	=13	=13
!	!	!	!	!	!LO:DY:a	!	!	!	!	!	!	!	!	!	!
8E-\L	.	8e-\L	.	4.G/ 4.e-/	f	4.B-/ 4.g/	f	2G/	f	2e-\	.	4.ee-\	.	4.gg\	f
8E-\	.	8e-\	.	.	.	.	.	.	.	.	.	.	.	.	.
8E-\	.	8e-\	.	.	.	.	.	.	.	.	.	.	.	.	.
!	!	!	!	!	!LO:DY:a	!	!	!	!	!	!	!	!	!	!
8E-\J	.	8e-\J	.	8B-/	p	8e-/	.	.	.	.	.	8b-\	.	8ee-\	p
!	!	!	!	!LO:LB:g=original	!	!	!	!	!	!	!	!	!	!	!
=14	=14	=14	=14	=14	=14	=14	=14	=14	=14	=14	=14	=14	=14	=14	=14
*tremolo	*	*	*	*	*	*	*	*	*	*	*	*	*	*	*
!	!	!	!	!	!	!	!	!LO:TX:a:t=3	!	!	!	!	!	!	!
!	!	!	!	!	!	!	!	!LO:N:vis=00	!	!LO:N:vis=0	!	!	!	!	!
8E-\L	.	8e-\L	fp	8e-`/L	.	8g`/L	.	1r	.	1r	.	8ee-\L	.	8gg`\L	.
8E-\	.	8e-\	.	8f`/	.	8a-`/	.	.	.	.	.	8ff\	.	8aa-`\	.
8E-\	.	8e-\	.	8g`/	.	8b-`/	.	.	.	.	.	8gg\	.	8bb-`\	.
8E-\J	.	8e-\J	.	8a-`/J	.	8cc`/J	.	.	.	.	.	8aa-\J	.	8ccc`\J	.
!	!	!	!	!	!	!LO:LB:g=original	!	!	!	!	!	!	!	!	!
=15	=15	=15	=15	=15	=15	=15	=15	=15	=15	=15	=15	=15	=15	=15	=15
8E-\L	.	8e-\L	.	(4g/	.	4b-`\	.	.	.	.	.	8gg\	.	8bb-\	.
8E-\	.	8e-\	.	.	.	.	.	.	.	.	.	8r	.	8r	.
8E-\	.	8e-\	.	32f/LLL	.	(32a-\LLL	.	.	.	.	.	4r	.	4r	.
.	.	.	.	32g/JJ)	.	32b-\JJ	.	.	.	.	.	.	.	.	.
.	.	.	.	8.a-/J	.	8.cc\J)	.	.	.	.	.	.	.	.	.
8E-\J	.	8e-\J	.	.	.	.	.	.	.	.	.	.	.	.	.
=16	=16	=16	=16	=16	=16	=16	=16	=16	=16	=16	=16	=16	=16	=16	=16
!	!	!	!	!	!	!	!	!	!	!	!	!LO:N:vis=00	!	!LO:N:vis=00	!
8E-\L	.	8e-\L	.	(32g/LLL	.	(32b-\LLL	.	2r	.	2r	.	0r	.	0r	.
.	.	.	.	32f/JJ)	.	32a-\JJ	.	.	.	.	.	.	.	.	.
.	.	.	.	8.e-/J	.	8.g\J)	.	.	.	.	.	.	.	.	.
8E-\	.	8e-\	.	.	.	.	.	.	.	.	.	.	.	.	.
8E-\	.	8e-\	.	4r	.	4r	.	.	.	.	.	.	.	.	.
8E-\J	.	8e-\J	.	.	.	.	.	.	.	.	.	.	.	.	.
=17	=17	=17	=17	=17	=17	=17	=17	=17	=17	=17	=17	=17	=17	=17	=17
!	!	!	!	!LO:N:vis=0	!	!	!	!	!	!	!	!	!	!	!
8E-\L	.	8e-\L	.	1r	.	4.ee-\	p	[2E-/	.	[2e-\	f	.	.	.	.
8E-\	.	8e-\	.	.	.	.	.	.	.	.	.	.	.	.	.
8E-\	.	8e-\	.	.	.	.	.	.	.	.	.	.	.	.	.
8E-\J	.	8e-\J	.	.	.	8b-\	.	.	.	.	.	.	.	.	.
=18	=18	=18	=18	=18	=18	=18	=18	=18	=18	=18	=18	=18	=18	=18	=18
8E-\L	.	8e-\L	.	.	.	8ee-'\L	.	2E-/_	.	2e-\_	p	.	.	.	.
8E-\	.	8e-\	.	.	.	8ff'\	.	.	.	.	.	.	.	.	.
8E-\	.	8e-\	.	.	.	8gg'\	.	.	.	.	.	.	.	.	.
8E-\J	.	8e-\J	.	.	.	8aa-'\J	.	.	.	.	.	.	.	.	.
=19	=19	=19	=19	=19	=19	=19	=19	=19	=19	=19	=19	=19	=19	=19	=19
8E-\L	.	8e-\L	.	4.ee-\	.	4.gg\	<	2E-/_	.	2e-\_	<	.	.	.	.
8E-\	.	8e-\	.	.	.	.	.	.	.	.	.	.	.	.	.
8E-\	.	8e-\	.	.	.	.	.	.	.	.	.	.	.	.	.
8E-\J	.	8e-\J	.	8b-\	.	8ee-\	.	.	.	.	.	.	.	.	.
=20	=20	=20	=20	=20	=20	=20	=20	=20	=20	=20	=20	=20	=20	=20	=20
!	!	!	!	!	!	!	!	!	!	!	!	!LO:N:vis=00	!	!LO:N:vis=00	!
8E-\L	.	8e-\L	.	8ee-'\L	.	8gg`\L	.	2E-/]	.	2e-\_	.	0r	.	0r	.
8E-\	.	8e-\	.	8ff'\	.	8aa-`\	.	.	.	.	.	.	.	.	.
8E-\	.	8e-\	.	8gg'\	.	8bb-`\	.	.	.	.	.	.	.	.	.
8E-\J	.	8e-\J	.	8aa-'\J	.	8ccc`\J	.	.	.	.	.	.	.	.	.
!	!	!	!	!	!	!	!	!LO:SIC:o:s=:v:brak ligatury	!	!	!	!	!	!	!
!	!	!	!	!	!	!	!	!LO:LB:g=original	!	!LO:LB:g=original	!	!	!	!	!
=21	=21	=21	=21	=21	=21	=21	=21	=21	=21	=21	=21	=21	=21	=21	=21
8E-\L	.	8e-\L	.	4.gg\	.	4.bb-\	.	[2E-/	.	2e-\_	.	.	.	.	.
8E-\	.	8e-\	.	.	.	.	.	.	.	.	.	.	.	.	.
8E-\	.	8e-\	.	.	.	.	.	.	.	.	.	.	.	.	.
8E-\J	.	8e-\J	.	8ee-\	.	8gg\	.	.	.	.	.	.	.	.	.
*Xtremolo	*	*	*	*	*	*	*	*	*	*	*	*	*	*	*
!LO:LB:g=original	!	!	!	!	!	!	!	!	!	!	!	!	!	!	!
=22	=22	=22	=22	=22	=22	=22	=22	=22	=22	=22	=22	=22	=22	=22	=22
!	!	!	!	!	!	!	!	!	!	!LO:SIC:o:s=:v:niejednoznaczna wysokość dźwięku	!	!	!	!	!
8E-\L	.	8e-\L	.	8gg\L	.	8bb-`\L	.	2E-/_	<	2e-\_	.	.	.	.	.
8E-\	.	8e-\	.	8gg\	.	8bb-`\	.	.	.	.	.	.	.	.	.
8E-\	.	8e-\	.	8aa-\	.	8ccc`\	.	.	.	.	.	.	.	.	.
8E-\J	.	8e-\J	.	8ff\J	.	8ddd`\J	.	.	.	.	.	.	.	.	.
*	*	*Xtremolo	*	*	*	*	*	*	*	*	*	*	*	*	*
=23	=23	=23	=23	=23	=23	=23	=23	=23	=23	=23	=23	=23	=23	=23	=23
4E-\	.	4e-\	f	8gg\	f	8eee-\	f	2E-/]	.	2e-\]	.	.	.	.	.
.	.	.	.	4gg\	.	4bb-\	.	.	.	.	.	.	.	.	.
4e-\	f	4ee-\	.	.	.	.	.	.	.	.	.	.	.	.	.
.	.	.	.	8aa-\	.	8ccc\	.	.	.	.	.	.	.	.	.
!	!	!	!	!LO:LB:g=original	!	!LO:LB:g=original	!	!	!	!	!	!	!	!	!
=24	=24	=24	=24	=24	=24	=24	=24	=24	=24	=24	=24	=24	=24	=24	=24
!	!	!	!	!	!	!	!	!LO:N:vis=0	!	!LO:N:vis=0	!	!LO:N:vis=00	!	!LO:N:vis=0	!
4B-\	.	4b-\	.	(4gg\	.	(4bb-\	.	1r	.	1r	.	1r	.	1r	.
4BB-/	.	4B-/	.	4ff\)	.	4aa-\)	.	.	.	.	.	.	.	.	.
=25	=25	=25	=25	=25	=25	=25	=25	=25	=25	=25	=25	=25	=25	=25	=25
4r	.	4r	.	8b-\	.	8b-\	.	.	.	.	f	.	.	.	.
.	.	.	.	4ff\	.	4aa-\	.	.	.	.	.	.	.	.	.
4BB-/	.	4B-/	.	.	.	.	.	.	.	.	.	.	.	.	.
.	.	.	.	8gg\	.	8bb-\	.	.	.	.	.	.	.	.	.
!	!	!LO:LB:g=original	!	!	!	!	!	!	!	!	!	!	!	!	!
=26	=26	=26	=26	=26	=26	=26	=26	=26	=26	=26	=26	=26	=26	=26	=26
4E-\	.	4e-\	.	(4ff\	.	(4aa-\	.	2r	.	2r	.	2r	.	2r	.
4EE-/	.	4E-/	.	4ee-\)	.	4gg\)	.	.	.	.	.	.	.	.	.
!	!	!	!	!	!	!	!	!	!	!	!	!LO:LB:g=original	!	!	!
=27	=27	=27	=27	=27	=27	=27	=27	=27	=27	=27	=27	=27	=27	=27	=27
4E-\	p	[2B-/	p	8g/	.	8ee-\	p	4.g\	p	4.b-\	.	8gg\	.	8eee-\	.
.	.	.	.	4g/	p	4b-\	.	.	.	.	.	4gg\	.	4bb-\	.
4e-\	.	.	.	.	.	.	.	.	.	.	.	.	.	.	.
.	.	.	.	8a-/	.	8cc\	.	8a-\	.	8cc\	p	8aa-\	.	8ccc\	.
=28	=28	=28	=28	=28	=28	=28	=28	=28	=28	=28	=28	=28	=28	=28	=28
4B-\	.	2B-/_	.	(4g/	.	(4b-/	.	(4g\	.	(4b-\	.	(4gg\	.	(4bb-\	.
4BB-/	.	.	.	4f/)	.	4a-/)	.	4f\)	.	4a-\)	.	4ff\)	.	4aa-\)	.
=29	=29	=29	=29	=29	=29	=29	=29	=29	=29	=29	=29	=29	=29	=29	=29
!	!	!	!	!	!	!	!	!	!	!LO:N:vis=00	!	!	!	!	!
4r	.	2B-/_	.	8B-/	.	8B-/	.	2r	.	0r	.	8b-\	.	8b-\	.
.	.	.	.	4f/	.	4a-/	.	.	.	.	.	4ff\	.	4aa-\	.
4BB-/	.	.	.	.	.	.	.	.	.	.	.	.	.	.	.
.	.	.	.	8g/	.	8b-/	.	.	.	.	.	8gg\	.	8bb-\	.
=30	=30	=30	=30	=30	=30	=30	=30	=30	=30	=30	=30	=30	=30	=30	=30
4E-\	.	2B-/_	.	(4f/	.	(4a-/	.	2r	.	.	.	(4ff\	.	(4aa-\	.
4EE-/	.	.	.	4e-/)	.	4g/)	.	.	.	.	.	4ee-\)	.	4gg\)	.
!	!	!	!	!	!	!	!	!	!	!	!	!	!	!LO:LB:g=original	!
=31	=31	=31	=31	=31	=31	=31	=31	=31	=31	=31	=31	=31	=31	=31	=31
2E-\	.	2B-/_	.	8g/	.	8ee-\	.	2r	.	.	.	8gg\	.	8eee-\	.
.	.	.	.	4g/	.	4b-\	.	.	.	.	.	4gg\	.	4bb-\	.
.	.	.	.	8a-/	.	8cc\	.	.	.	.	.	8aa-\	.	8ccc\	.
!LO:LB:g=original	!	!	!	!	!	!	!	!	!	!	!	!	!	!	!
=32	=32	=32	=32	=32	=32	=32	=32	=32	=32	=32	=32	=32	=32	=32	=32
2E-\	.	2B-/_	.	8g/	.	8b-\	.	2r	.	.	.	8gg\	.	8bb-\	.
.	.	.	.	4a-/	.	4d/	.	.	.	.	.	4a-/	.	4dd\	.
.	.	.	.	8g/	.	8e-/	.	.	.	.	.	8g/	.	8ee-\	.
!	!	!	!	!LO:LB:g=original	!	!LO:LB:g=original	!	!	!	!	!	!	!	!	!
=33	=33	=33	=33	=33	=33	=33	=33	=33	=33	=33	=33	=33	=33	=33	=33
4D\	.	2B-/_	.	8f/	.	8B-/	.	4.B-/	p	4.f\	p	8f/	.	8b-\	.
.	.	.	.	4f/	.	4a-/	.	.	.	.	.	4ff\	.	4aa-\	.
4E-\	.	.	.	.	.	.	.	.	.	.	.	.	.	.	.
.	.	.	.	8e-/	.	8g/	.	8e-/	.	8g\	.	8ee-\	.	8gg\	.
=34	=34	=34	=34	=34	=34	=34	=34	=34	=34	=34	=34	=34	=34	=34	=34
!LO:TX:a:t=P:problem=mixed beam	!	!	!	!	!	!	!	!	!	!	!	!	!	!	!
8B-\L	.	2B-/]	.	4e-/	.	(4g/	.	(4e-\	.	(4g\	.	(4ee-\	.	4gg\	.
8BB-/J	.	.	.	.	.	.	.	.	.	.	.	.	.	.	.
4B-\	.	.	.	4d/	.	4f/)	.	4B-/)	.	4f\)	.	4dd\)	.	4ff\	.
=35	=35	=35	=35	=35	=35	=35	=35	=35	=35	=35	=35	=35	=35	=35	=35
!	!	!	!	!	!	!	!LO:DY:t=for	!	!	!	!	!LO:N:vis=0	!	!LO:N:vis=0	!
8c`\L	.	8cc`\L	f	16ff\LL	.	8ee-`\L	f	[2f\	f	[2f\	f	1r	.	1r	.
.	.	.	.	16ff\	f	.	.	.	.	.	.	.	.	.	.
8B-`\	.	8b-`\	.	16ff\	.	8dd`\	.	.	.	.	.	.	.	.	.
.	.	.	.	16ff\JJ	.	.	.	.	.	.	.	.	.	.	.
*	*	*	*	*tremolo	*	*	*	*	*	*	*	*	*	*	*
8A-`\	f	8an`\	.	16ff\LL	.	8cc`\	.	.	.	.	.	.	.	.	.
.	.	.	.	16ff\	.	.	.	.	.	.	.	.	.	.	.
8G`\J	.	8g`\J	.	16ff\	.	8b-`\J	.	.	.	.	.	.	.	.	.
.	.	.	.	16ff\JJ	.	.	.	.	.	.	.	.	.	.	.
=36	=36	=36	=36	=36	=36	=36	=36	=36	=36	=36	=36	=36	=36	=36	=36
*	*	*	*	*2\right	*	*	*	*	*	*	*	*	*	*	*
8F`\L	.	8f`\L	.	16ff\LL	.	8an`\L	.	2f\]	.	2f\]	.	.	.	.	.
.	.	.	.	16ff\	.	.	.	.	.	.	.	.	.	.	.
8G`\J	.	8g`\J	.	16ff\	.	8b-`\J	.	.	.	.	.	.	.	.	.
.	.	.	.	16ff\	.	.	.	.	.	.	.	.	.	.	.
4An`\	.	4an`\	.	16ff\	.	4cc\	.	.	.	.	.	.	.	.	.
.	.	.	.	16ff\	.	.	.	.	.	.	.	.	.	.	.
.	.	.	.	16ff\	.	.	.	.	.	.	.	.	.	.	.
.	.	.	.	16ff\JJ	.	.	.	.	.	.	.	.	.	.	.
=37	=37	=37	=37	=37	=37	=37	=37	=37	=37	=37	=37	=37	=37	=37	=37
!	!	!LO:TX:a:t=2	!	!	!	!LO:TX:a:t=2	!	!	!	!LO:TX:a:t=2	!	!	!	!	!
!LO:N:vis=0	!	!LO:N:vis=0	!	!	!	!LO:N:vis=0	!	!LO:N:vis=0	!	!LO:N:vis=0	!	!	!	!	!
1r	.	1r	.	16ff\LL	p	1r	.	1r	.	1r	.	8ccc\L	.	8eee-`\L	.
.	.	.	.	16ff\	.	.	.	.	.	.	.	.	.	.	.
.	.	.	.	16ff\	.	.	.	.	.	.	.	8bb-\	.	8ddd`\	p
.	.	.	.	16ff\	.	.	.	.	.	.	.	.	.	.	.
.	.	.	.	16ff\	.	.	.	.	.	.	.	8aan\	.	8ccc`\	.
.	.	.	.	16ff\	.	.	.	.	.	.	.	.	.	.	.
.	.	.	.	16ff\	.	.	.	.	.	.	.	8gg\J	.	8bb-`\J	.
.	.	.	.	16ff\JJ	.	.	.	.	.	.	.	.	.	.	.
!	!	!	!	!	!	!	!	!	!	!	!	!	!	!LO:LB:g=original	!
=38	=38	=38	=38	=38	=38	=38	=38	=38	=38	=38	=38	=38	=38	=38	=38
.	.	.	.	16ff\LL	f	.	.	.	.	.	.	8ff`\L	.	8aan`\L	.
.	.	.	.	16ff\	.	.	.	.	.	.	.	.	.	.	.
.	.	.	.	16ff\	.	.	.	.	.	.	.	8een`\J	.	8gg`\J	.
.	.	.	.	16ff\	.	.	.	.	.	.	.	.	.	.	.
.	.	.	.	16ff\	.	.	.	.	.	.	.	4ff\	.	4ff`\	.
.	.	.	.	16ff\	.	.	.	.	.	.	.	.	.	.	.
.	.	.	.	16ff\	.	.	.	.	.	.	.	.	.	.	.
.	.	.	.	16ff\JJ	.	.	.	.	.	.	.	.	.	.	.
!	!	!	!	!	!	!	!	!	!	!	!	!LO:LB:g=original	!	!	!
=39	=39	=39	=39	=39	=39	=39	=39	=39	=39	=39	=39	=39	=39	=39	=39
!	!	!	!	!	!	!	!	!	!	!	!	!LO:N:vis=0	!	!LO:N:vis=0	!
8c`\L	f	8cc`\L	.	16ff\LL	.	8ee-`\L	f	2f\	f	[2f\	.	1r	.	1r	.
.	.	.	.	16ff\	.	.	.	.	.	.	.	.	.	.	.
8B-`\	.	8b-`\	.	16ff\	.	8dd`\	.	.	.	.	.	.	.	.	.
.	.	.	.	16ff\	.	.	.	.	.	.	.	.	.	.	.
8An`\	.	8an`\	.	16ff\	.	8cc`\	.	.	.	.	.	.	.	.	.
.	.	.	.	16ff\	.	.	.	.	.	.	.	.	.	.	.
8G`\J	.	8g`\J	.	16ff\	.	8b-`\J	.	.	.	.	.	.	.	.	.
.	.	.	.	16ff\JJ	.	.	.	.	.	.	.	.	.	.	.
!	!	!LO:LB:g=original	!	!	!	!	!	!	!	!	!	!	!	!	!
=40	=40	=40	=40	=40	=40	=40	=40	=40	=40	=40	=40	=40	=40	=40	=40
8F`\L	.	8f`\L	.	16ff\LL	.	8an\L	.	2f\	.	2f\]	.	.	.	.	.
.	.	.	.	16ff\	.	.	.	.	.	.	.	.	.	.	.
8G`\J	.	8g`\J	.	16ff\	.	8b-\J	.	.	.	.	.	.	.	.	.
.	.	.	.	16ff\	.	.	.	.	.	.	.	.	.	.	.
4An`\	.	4an\	.	16ff\	.	4cc\	.	.	.	.	.	.	.	.	.
.	.	.	.	16ff\	.	.	.	.	.	.	.	.	.	.	.
.	.	.	.	16ff\	.	.	.	.	.	.	.	.	.	.	.
.	.	.	.	16ff\JJ	.	.	.	.	.	.	.	.	.	.	.
!LO:LB:g=original	!	!	!	!	!	!	!	!LO:LB:g=original	!	!	!	!	!	!	!
=41	=41	=41	=41	=41	=41	=41	=41	=41	=41	=41	=41	=41	=41	=41	=41
!LO:TX:a:t=2	!	!LO:TX:a:t=2	!	!	!	!LO:TX:a:t=2	!	!	!	!	!	!	!	!	!
!LO:N:vis=0	!	!LO:N:vis=0	!	!	!	!LO:N:vis=0	!	!LO:N:vis=0	!	!LO:N:vis=0	!	!	!	!	!
1r	.	1r	.	16ff\LL	p	1r	.	1r	.	1r	.	8ccc`\L	.	8eee-`\L	p
.	.	.	.	16ff\	.	.	.	.	.	.	.	.	.	.	.
.	.	.	.	16ff\	.	.	.	.	.	.	.	8bb-`\	.	8ddd`\	.
.	.	.	.	16ff\	.	.	.	.	.	.	.	.	.	.	.
.	.	.	.	16ff\	.	.	.	.	.	.	.	8aan`\	.	8ccc`\	.
.	.	.	.	16ff\	.	.	.	.	.	.	.	.	.	.	.
.	.	.	.	16ff\	.	.	.	.	.	.	.	8gg`\J	.	8bb-\J	.
.	.	.	.	16ff\JJ	.	.	.	.	.	.	.	.	.	.	.
!	!	!	!	!	!	!	!	!	!	!	!	!	!	!LO:LB:g=original	!
=42	=42	=42	=42	=42	=42	=42	=42	=42	=42	=42	=42	=42	=42	=42	=42
.	.	.	.	16ff\LL	.	.	.	.	.	.	.	8ff`\L	.	8aan`\L	.
.	.	.	.	16ff\	.	.	.	.	.	.	.	.	.	.	.
.	.	.	.	16ff\	.	.	.	.	.	.	.	8een`\J	.	8gg`\J	.
.	.	.	.	16ff\	.	.	.	.	.	.	.	.	.	.	.
.	.	.	.	16ff\	.	.	.	.	.	.	.	4ff\	.	4ff`\	.
.	.	.	.	16ff\	.	.	.	.	.	.	.	.	.	.	.
.	.	.	.	16ff\	.	.	.	.	.	.	.	.	.	.	.
.	.	.	.	16ff\JJ	.	.	.	.	.	.	.	.	.	.	.
*	*	*	*	*Xtremolo	*	*	*	*	*	*	*	*	*	*	*
=43	=43	=43	=43	=43	=43	=43	=43	=43	=43	=43	=43	=43	=43	=43	=43
[>2BB-/	p	[2B-/	p	4d/	.	4b-\	p	[2B-/	p	[2b-\	.	4dd\	.	4bb-\	.
.	.	.	.	8qqf/	.	8qqdd/	.	.	.	.	.	.	.	.	.
!	!	!	!	!	!	!	!	!	!	!	!	!LO:N:vis=8.	!	!	!
.	.	.	.	8.e-/L	.	8cc\L	.	.	.	.	.	(8ee-\L	.	8ccc\L	.
.	.	.	.	.	.	(16b-\L	.	.	.	.	.	16dd\L	.	(16bb-\L	.
.	.	.	.	32d/LL	.	16cc\JJ)	.	.	.	.	.	16ee-\JJ)	.	16ccc\JJ)	.
.	.	.	.	32e-/JJJ	.	.	.	.	.	.	.	.	.	.	.
!	!	!	!	!LO:LB:g=original	!	!LO:LB:g=original	!	!	!	!LO:LB:g=original	!	!	!	!	!
=44	=44	=44	=44	=44	=44	=44	=44	=44	=44	=44	=44	=44	=44	=44	=44
2BB-/_>	.	2B-/_	.	4f/	.	4dd\	.	2B-/_	.	2b-\_	.	4ff\	.	4ddd\	.
.	.	.	.	16qqe-/LL	.	(16qqcc/LL	.	.	.	.	.	16qqee-/LL	.	16qqccc/LL	.
.	.	.	.	16qqf/JJ	.	16qqdd/JJ)	.	.	.	.	.	16qqff/JJ	.	16qqddd/JJ	.
.	.	.	.	8g/L	.	8ee-\L	.	.	.	.	.	8gg\L	.	(8eee-\L	.
.	.	.	.	16f/L	.	(16dd\L	.	.	.	.	.	(16ff\L	.	16ddd\L	.
.	.	.	.	16e-/JJ	.	16cc\JJ)	.	.	.	.	.	16ee-\JJ)	.	16ccc\JJ)	.
=45	=45	=45	=45	=45	=45	=45	=45	=45	=45	=45	=45	=45	=45	=45	=45
2BB-/_>	.	2B-/_	.	(4d/	.	4b-\	.	2B-/_	.	2b-\_	.	(4dd\	.	4gg\	.
.	.	.	.	.	.	8qqdd/	.	.	.	.	.	.	.	8qqddd/	.
.	.	.	.	4f/	.	8cc\L	.	.	.	.	.	4ff\)	.	8ccc\L	.
.	.	.	.	.	.	(16b-\L	.	.	.	.	.	.	.	(16bb-\L	.
.	.	.	.	.	.	16cc\JJ)	.	.	.	.	.	.	.	16ccc\JJ)	.
=46	=46	=46	=46	=46	=46	=46	=46	=46	=46	=46	=46	=46	=46	=46	=46
2BB-/_>	.	2B-/_	.	4b-\	.	(4dd\	.	2B-/_	.	2b-\_	.	4bb-\	.	(4ddd\	.
.	.	.	.	4dd\)	.	4ff\)	.	.	.	.	.	4ddd\	.	4fff\)	.
=47	=47	=47	=47	=47	=47	=47	=47	=47	=47	=47	=47	=47	=47	=47	=47
2BB-/_>	.	2B-/_	.	4d/	.	4b-\	.	2B-/_	.	2b-\_	.	4dd\	.	4bb-\	.
.	.	.	.	8qqf/	.	8qqdd/	.	.	.	.	.	(>8qqff/	.	8qqddd/	.
.	.	.	.	8e-/L	.	8cc\L	.	.	.	.	.	8ee-\L	.	8ccc\L	.
.	.	.	.	16d/L	.	(16b-\L	.	.	.	.	.	16dd\L	.	16bb-\L	.
.	.	.	.	16e-/JJ	.	16cc\JJ)	.	.	.	.	.	16ee-\JJ)	.	16ccc\JJ	.
=48	=48	=48	=48	=48	=48	=48	=48	=48	=48	=48	=48	=48	=48	=48	=48
2BB-/_>	.	2B-/_	.	4f/	.	4ee-\	.	2B-/_	.	2b-\_	.	4ff\	.	4ddd\	.
.	.	.	.	16qqe-/LL	.	16qqcc/LL	.	.	.	.	.	16qqee-/LL	.	16qqccc/LL	.
.	.	.	.	16qqf/JJ	.	16qqdd/JJ	.	.	.	.	.	16qqff/JJ	.	16qqddd/JJ	.
.	.	.	.	8g/L	.	8ee-\L	.	.	.	.	.	(8gg\L	.	8eee-\L	.
.	.	.	.	16f/L	.	16dd\L	.	.	.	.	.	16ff\L	.	16ddd\L	.
.	.	.	.	16e-/JJ	.	16cc\JJ	.	.	.	.	.	16ee-\JJ)	.	16ccc\JJ	.
!	!	!	!	!	!	!	!	!	!	!	!	!LO:LB:g=original	!	!LO:LB:g=original	!
=49	=49	=49	=49	=49	=49	=49	=49	=49	=49	=49	=49	=49	=49	=49	=49
2BB-/_>	.	2B-/_	.	(4d/	.	4b-\	.	2B-/_	.	2b-\_	.	(4dd\	.	4bb-\	.
.	.	.	.	.	.	8qqdd/	.	.	.	.	.	.	.	8qqddd/	.
.	.	.	.	4f/	.	8cc\L	.	.	.	.	.	4ff\)	.	8ccc\L	.
.	.	.	.	.	.	(16b-\L	.	.	.	.	.	.	.	(16bb-\L	.
.	.	.	.	.	.	16cc\JJ)	.	.	.	.	.	.	.	16ccc\JJ)	.
=50	=50	=50	=50	=50	=50	=50	=50	=50	=50	=50	=50	=50	=50	=50	=50
2BB-/]	.	2B-/]	.	4b-\	.	(4dd\	.	2B-/]	.	2b-\]	.	(4bb-\	.	(4ddd\	.
.	.	.	.	4dd\)	.	4ff\)	.	.	.	.	.	4ddd\)	.	4fff\)	.
!	!	!	!	!	!	!LO:LB:g=original	!	!	!	!	!	!	!	!	!
=51	=51	=51	=51	=51	=51	=51	=51	=51	=51	=51	=51	=51	=51	=51	=51
!	!	!	!	!	!	!	!	!LO:N:vis=00	!	!LO:N:vis=00	!	!	!	!	!
4D\	.	4d\	f	8d/L	.	8d/L	f	0r	.	0r	.	(4b-\	.	(4b-\	.
.	.	.	.	8b-/J	f	8b-/	.	.	.	.	.	.	.	.	.
4E-\	f	4e-\	.	8e-/L	.	8e-/	.	.	.	.	.	4cc\	.	4cc\	.
.	.	.	.	8cc/J	.	8cc/J	.	.	.	.	.	.	.	.	.
=52	=52	=52	=52	=52	=52	=52	=52	=52	=52	=52	=52	=52	=52	=52	=52
4F\	.	4f\	.	8f/L	.	8f/L	.	.	.	.	.	4dd\	.	4dd\	.
.	.	.	.	8dd/J	.	8dd/	.	.	.	.	.	.	.	.	.
!	!	!	!	!LO:LB:g=original	!	!	!	!	!	!	!	!	!	!	!
!	!	!	!	!LO:TX:a:t=P:problem=mixed beam	!	!	!	!	!	!	!	!	!	!	!
4G\	.	4g\	.	8g/L	.	8g/	.	.	.	.	.	4ee-\)	.	4ee-\	.
.	.	.	.	8ee-\J	.	8ee-/J	.	.	.	.	.	.	.	.	.
=53	=53	=53	=53	=53	=53	=53	=53	=53	=53	=53	=53	=53	=53	=53	=53
4An\	.	4an\	.	8an\L	.	8an\L	.	.	.	.	.	4ff\	.	4ff\	.
.	.	.	.	8ff\	.	8ff\	.	.	.	.	.	.	.	.	.
4B-\	.	4b-\	.	8b-\	.	8b-\	.	.	.	.	.	4gg\	.	4gg\	.
.	.	.	.	8gg\J	.	8gg\J	.	.	.	.	.	.	.	.	.
!LO:LB:g=original	!	!	!	!	!	!	!	!	!	!	!	!	!	!	!
=54	=54	=54	=54	=54	=54	=54	=54	=54	=54	=54	=54	=54	=54	=54	=54
4B-\	.	4cc\	.	8cc\L	.	8cc\L	.	.	.	.	.	(4aan\	.	4aan\	.
.	.	.	.	8aan\	.	8aan\	.	.	.	.	.	.	.	.	.
4d\	.	4dd\	.	8dd\	.	8dd\	.	.	.	.	.	4bb-\)	.	4bb-\)	.
.	.	.	.	8bb-\J	.	8bb-\J	.	.	.	.	.	.	.	.	.
!	!	!LO:LB:g=original	!	!	!	!	!	!	!	!	!	!	!	!	!
=55	=55	=55	=55	=55	=55	=55	=55	=55	=55	=55	=55	=55	=55	=55	=55
!	!	!	!	!	!	!	!	!LO:N:vis=0	!	!LO:N:vis=0	!	!LO:N:vis=0	!	!LO:N:vis=0	!
8e-\L	.	8ee-\L	.	8gg\L	.	8gg\L	.	1r	.	1r	.	1r	.	1r	.
8d\	.	8dd\	.	8ff\	.	8ff\	.	.	.	.	.	.	.	.	.
8c\	.	8cc\	.	8ee-\	.	8ee-\	.	.	.	.	.	.	.	.	.
8B-\J	.	8b-\J	.	8dd\J	.	8dd\J	.	.	.	.	.	.	.	.	.
=56	=56	=56	=56	=56	=56	=56	=56	=56	=56	=56	=56	=56	=56	=56	=56
8An\L	.	8an\L	.	8cc\L	.	8cc\L	.	.	.	.	.	.	.	.	.
8G\	.	8g\	.	8b-\	.	8b-\	.	.	.	.	.	.	.	.	.
8F\	.	8f\	.	8a-\	.	8an\	.	.	.	.	.	.	.	.	.
8En\J	.	8en\J	.	8g\J	.	8g\J	.	.	.	.	.	.	.	.	.
=57	=57	=57	=57	=57	=57	=57	=57	=57	=57	=57	=57	=57	=57	=57	=57
!LO:TX:a:t=P:problem=mixed beam	!	!LO:TX:a:t=P:problem=mixed beam	!	!	!	!	!	!	!	!	!	!	!	!	!
8F\L	.	8f\L	.	8f/	.	4f/	.	4f\	.	4f\	.	4dd\	.	8bb-\	.
8F\	.	8f\	.	4b-/	.	.	.	.	.	.	.	.	.	4bb-\	.
8FF/	.	8F/	.	.	.	4ccT\	.	8.f\L	.	8.f\L	.	4ccT\	.	.	.
8FF/J	.	8F/J	.	8an/	.	.	.	.	.	.	.	.	.	8aan\	.
.	.	.	.	.	.	.	.	16f\Jk	.	16f\Jk	.	.	.	.	.
=58	=58	=58	=58	=58	=58	=58	=58	=58	=58	=58	=58	=58	=58	=58	=58
*	*	*	*	*	*	*	*	*	*	*	*	*2\right	*	*2\right	*
!LO:TX:a:t=P:problem=mixed beam	!	!LO:TX:a:t=P:problem=mixed beam	!	!	!	!	!	!	!	!	!	!	!	!	!
8BB-/L	.	8B-/L	.	4b-\	.	4b-\	.	[2f\	.	[2f\	f	2dd\	.	2bb-\	.
8B-\	.	8b-\	.	.	.	.	.	.	.	.	.	.	.	.	.
!	!	!LO:SIC:o=:v:niejednoznaczny zapisa wysokości	!	!	!	!	!	!	!	!	!	!	!	!	!
8d\	.	8b-\	.	4r	.	4r	.	.	.	.	.	.	.	.	.
8B-\J	.	8b-\J	.	.	.	.	.	.	.	.	.	.	.	.	.
!	!	!	!	!	!	!LO:LB:g=original	!	!	!	!	!	!	!	!	!
=59	=59	=59	=59	=59	=59	=59	=59	=59	=59	=59	=59	=59	=59	=59	=59
.	.	.	.	.	.	4qqff/	f	.	.	.	.	.	.	.	.
8c\L	f	8cc\L	f	8an\L	.	4.ee-\	.	2f\_	f	2f\_	.	2ee-\	.	4.aan\	f
8An\	.	8an\	.	8cc\	.	.	.	.	.	.	.	.	.	.	.
8F\	p	8f\	p	8ee-\	.	.	.	.	.	.	.	.	.	.	.
8A\J	.	8a\J	.	8cc\J	f	8cc\	p	.	.	.	.	.	.	8ccc\	.
!	!	!	!	!LO:LB:g=original	!	!	!	!	!	!	!	!	!	!	!
=60	=60	=60	=60	=60	=60	=60	=60	=60	=60	=60	=60	=60	=60	=60	=60
8B-\L	.	8b-\L	.	8dd\	.	8dd\	.	2f\_	p	2f\_	p	2dd\	.	2bb-\	p
8F\	.	8f\	.	8r	.	8r	.	.	.	.	.	.	.	.	.
8D\	.	8d\	.	8b-\	p	8b-\	.	.	.	.	.	.	.	.	.
8B-\J	.	8b-\J	.	8r	.	8r	.	.	.	.	.	.	.	.	.
!	!	!	!	!	!	!	!	!	!	!	!	!	!	!LO:LB:g=original	!
=61	=61	=61	=61	=61	=61	=61	=61	=61	=61	=61	=61	=61	=61	=61	=61
.	.	.	.	.	.	4qqff/	f	.	.	.	.	.	.	.	.
8c\L	f	8cc\L	f	8an\L	.	4.ee-\	.	2f\_	f	2f\_	f	2ee-\	.	4.aan\	f
8An\	.	8an\	.	8cc\	.	.	.	.	.	.	.	.	.	.	.
8F\	p	8f\	p	8ee-\	f	.	.	.	.	.	.	.	.	.	.
8A\J	.	8b-\J	.	8cc\J	.	8cc\	p	.	.	.	.	.	.	8ccc\	p
!LO:LB:g=original	!	!	!	!	!	!	!	!LO:LB:g=original	!	!	!	!	!	!	!
=62	=62	=62	=62	=62	=62	=62	=62	=62	=62	=62	=62	=62	=62	=62	=62
8B-\L	p	8b-\L	.	8dd\	p	8dd\	.	2f\_	p	2f\_	p	2dd\	.	2bb-\	.
8F\	.	8f\	p	8r	.	8r	.	.	.	.	.	.	.	.	.
8D\	.	8d\	.	8dd\	.	8bb-\	.	.	.	.	.	.	.	.	.
8B-\J	.	8b-\J	.	8r	.	8r	.	.	.	.	.	.	.	.	.
=63	=63	=63	=63	=63	=63	=63	=63	=63	=63	=63	=63	=63	=63	=63	=63
.	.	.	.	.	.	4qqff/	f	.	.	.	.	.	.	.	.
8c\L	.	8cc\L	f	8an\L	f	4.ee-\	.	2f\_	f	2f\_	f	2ee-\	.	4.aan\	f
8An\	.	8an\	.	8cc\	.	.	.	.	.	.	.	.	.	.	.
8F\	f	8f\	.	8ee-\	.	.	.	.	.	.	.	.	.	.	.
8A\J	.	8a\J	.	8cc\J	.	8cc\	p	.	.	.	.	.	.	8ccc\	p
!	!	!	!	!	!	!	!	!	!	!LO:SIC:o:v:wykreśłony takt	!	!	!	!	!
!	!	!LO:LB:g=original	!	!	!	!	!	!	!	!LO:LB:g=original	!	!	!	!	!
=64	=64	=64	=64	=64	=64	=64	=64	=64	=64	=64	=64	=64	=64	=64	=64
8B-\L	p	8b-\L	.	8dd\	p	8dd\	.	2f\_	p	2f\_	.	2dd\	.	2bb-\	.
8F\	.	8f\	p	8r	.	8r	.	.	.	.	.	.	.	.	.
8D\	.	8d\	.	8b-\	.	8b-\	.	.	.	.	.	.	.	.	.
8B-\J	.	8b-\J	.	8r	.	8r	.	.	.	.	.	.	.	.	.
!	!	!	!	!	!	!	!	!	!	!	!	!LO:LB:g=original	!	!	!
=65	=65	=65	=65	=65	=65	=65	=65	=65	=65	=65	=65	=65	=65	=65	=65
.	.	.	.	.	.	4qqff/	f	.	.	.	.	.	.	.	.
8c\L	.	8cc\L	f	8an\L	.	4.ee-\	.	2f\_	f	2f\_	f	2ee-\	.	4.aan\	f
8An\	f	8an\	.	8cc\	.	.	.	.	.	.	.	.	.	.	.
8F\	f	8f\	p	8ee-\	f	.	.	.	.	.	.	.	.	.	.
8A\J	.	8a\J	.	8cc\J	.	8cc\	p	.	.	.	.	.	.	8ccc\	p
=66	=66	=66	=66	=66	=66	=66	=66	=66	=66	=66	=66	=66	=66	=66	=66
8B-\L	.	8b-\L	.	8dd\	.	8dd\	.	2f\]	p	2f\]	p	2dd\	.	2bb-\	.
8F\	.	8f\	.	8r	p	4r	.	.	.	.	.	.	.	.	.
8D\	.	8d\	.	8dd\	.	.	.	.	.	.	.	.	.	.	.
8BB-\J	.	8B-\J	.	8r	.	8bb-\	.	.	.	.	.	.	.	.	.
!	!	!	!	!LO:LB:g=original	!	!LO:LB:g=original	!	!	!	!	!	!	!	!	!
=67	=67	=67	=67	=67	=67	=67	=67	=67	=67	=67	=67	=67	=67	=67	=67
!	!	!	!	!	!	!	!LO:DY:t=for	!LO:N:vis=00	!	!LO:N:vis=00	!	!	!	!	!
4D\	f	4d\	.	8d/L	.	8d/L	f	0r	.	0r	.	(4b-\	.	(4b-\	.
.	.	.	.	8b-/	.	8b-/	.	.	.	.	.	.	.	.	.
4E-\	.	4e-\	.	8e-/	.	8e-/	.	.	.	.	.	4cc\)	.	4cc\	.
.	.	.	.	8cc/J	.	8cc/J	.	.	.	.	.	.	.	.	.
=68	=68	=68	=68	=68	=68	=68	=68	=68	=68	=68	=68	=68	=68	=68	=68
!	!	!	!	!LO:TX:a:t=P:problem=mixed beam	!	!	!	!	!	!	!	!	!	!	!
4F\	.	4f\	.	8f/L	.	8f\L	.	.	.	.	.	(4dd\	.	4dd\	.
.	.	.	.	8dd\J	.	8dd\	.	.	.	.	.	.	.	.	.
!	!	!	!	!LO:TX:a:t=P:problem=mixed beam	!	!	!	!	!	!	!	!	!	!	!
4G\	.	4g\	.	8g/L	.	8g\	.	.	.	.	.	4ee-\	.	4ee-\	.
.	.	.	.	8ee-\J	.	8ee-\J	.	.	.	.	.	.	.	.	.
=69	=69	=69	=69	=69	=69	=69	=69	=69	=69	=69	=69	=69	=69	=69	=69
4An\	.	4an\	.	8an\L	.	8an\L	.	.	.	.	.	4ff\	.	4ff\	.
.	.	.	.	8ff\	.	8ff\	.	.	.	.	.	.	.	.	.
4B-\	.	4b-\	.	8b-\	.	8b-\	.	.	.	.	.	4gg\	.	4gg\	.
.	.	.	.	8gg\J	.	8gg\J	.	.	.	.	.	.	.	.	.
=70	=70	=70	=70	=70	=70	=70	=70	=70	=70	=70	=70	=70	=70	=70	=70
4c\	.	4cc\	.	8cc\L	.	8cc\L	.	.	.	.	.	4aan\	.	4aan\	.
.	.	.	.	8aan\	.	8aan\	.	.	.	.	.	.	.	.	.
4d\	.	4dd\	.	8dd\	.	8dd\	.	.	.	.	.	4bb-\)	.	4bb-\)	.
.	.	.	.	8bb-\J	.	8bb-\J	.	.	.	.	.	.	.	.	.
=71	=71	=71	=71	=71	=71	=71	=71	=71	=71	=71	=71	=71	=71	=71	=71
!	!	!	!	!	!	!	!	!LO:N:vis=0	!	!LO:N:vis=0	!	!LO:N:vis=0	!	!LO:N:vis=0	!
8en\L	.	8ee-\L	.	8gg\L	.	8gg\L	.	1r	.	1r	.	1r	.	1r	.
8d\	.	8dd\	.	8ff\	.	8ff\	.	.	.	.	.	.	.	.	.
8c\	.	8cc\	.	8ee-\	.	8ee-\	.	.	.	.	.	.	.	.	.
8B-\J	.	8b-\J	.	8dd\J	.	8dd\J	.	.	.	.	.	.	.	.	.
!LO:LB:g=original	!	!	!	!	!	!	!	!	!	!	!	!	!	!	!
=72	=72	=72	=72	=72	=72	=72	=72	=72	=72	=72	=72	=72	=72	=72	=72
8An\L	.	8an\L	.	8cc\L	.	8cc\L	.	.	.	.	.	.	.	.	.
8G\	.	8g\	.	8b-\	.	8b-\	.	.	.	.	.	.	.	.	.
8F\	.	8f\	.	8a-\	.	8a-\	.	.	.	.	.	.	.	.	.
8En\J	.	8en\J	.	8g\J	.	8g\J	.	.	.	.	.	.	.	.	.
=73	=73	=73	=73	=73	=73	=73	=73	=73	=73	=73	=73	=73	=73	=73	=73
!LO:TX:a:t=P:problem=mixed beam	!	!	!	!	!	!	!	!	!	!	!	!	!	!	!
8F\L	.	8f\L	.	8f/	.	4f/	.	4f\	.	4f\	f	4dd\	.	8bb-\	.
8F\	.	8f\J	.	4b-/	.	.	.	.	.	.	.	.	.	4bb-\	.
!	!	!LO:LB:g=original	!	!	!	!	!	!	!	!	!	!	!	!	!
8FF/	.	8F/L	.	.	.	4ccT\	.	8.f\L	.	8.f\L	.	4ccT\	.	.	.
8FF/J	.	8F/J	.	8an/	.	.	.	.	.	.	.	.	.	8aant\	.
.	.	.	.	.	.	.	.	16f\Jk	.	16f\Jk	.	.	.	.	.
!	!	!	!	!LO:LB:g=original	!	!	!	!	!	!	!	!	!	!LO:LB:g=original	!
=74	=74	=74	=74	=74	=74	=74	=74	=74	=74	=74	=74	=74	=74	=74	=74
*tremolo	*	*	*	*	*	*	*	*	*	*	*	*	*	*	*
8BB-/L	.	8B-/L	.	8b-/	.	8d/L 8b-/	.	4B-/	.	4f\	.	8b-\L	.	8bb-\L	.
8BB-/	.	8B-/	.	8d/L 8b-/	.	8d/ 8b-/	.	.	.	.	.	8dd\	.	8bb-\	.
8BB-/	.	8B-/	.	8d/ 8b-/	.	8d/ 8b-/	.	8.B-/L	.	8.f\L	.	8dd\	.	8bb-\	.
8BB-/J	.	8B-/J	.	8d/J 8b-/	.	8d/J 8b-/	.	.	.	.	.	8dd\J	.	8bb-\J	.
.	.	.	.	.	.	.	.	16B-/Jk	.	16f\Jk	.	.	.	.	.
!	!	!	!	!	!	!LO:LB:g=original	!	!	!	!	!	!	!	!	!
=75	=75	=75	=75	=75	=75	=75	=75	=75	=75	=75	=75	=75	=75	=75	=75
4BB-/	.	4B-/	.	4d/ 4b-/	.	4d/ 4b-/	.	4B-/	.	4f\	.	4dd\	.	4bb-\	.
4r	.	4r	.	4r	.	4r	.	4r	.	4r	.	4r	.	4r	.
!LO:SIC:o=:v:kreska taktowa jakby z longą nad i pod	!	!LO:SIC:o=:v:kreska taktowa jakby z longą nad i pod	!	!	!	!LO:SIC:o=:v:kreska taktowa jakby z longą nad i pod	!	!LO:SIC:o=:v:kreska taktowa jakby z longą nad i pod	!	!	!	!	!	!	!
=76:|!|:	=76||	=76||	=76||	=76||	=76||	=76||	=76||	=76:|!|:	=76:|!|:	=76:|!|:	=76:|!|:	=76:|!|:	=76:|!|:	=76:|!|:	=76:|!|:
*	*	*tremolo	*	*	*	*	*	*	*	*	*	*	*	*	*
!	!	!	!	!	!	!	!	!	!	!	!	!LO:N:vis=00	!	!	!
8BB-/L	f	8B-/L	fp	4d/ 4b-/	.	4.d/ 4.b-/	f	2B-/	.	2f\	.	0r	.	4.b-/	f
8BB-/	.	8B-/	.	.	.	.	.	.	.	.	.	.	.	.	.
8BB-/	.	8B-/	.	4r	.	.	.	.	.	.	.	.	.	.	.
8BB-/J	.	8B-/J	.	.	.	8f/	p	.	.	.	.	.	.	8f/	p
=77	=77	=77	=77	=77	=77	=77	=77	=77	=77	=77	=77	=77	=77	=77	=77
!	!	!	!	!	!	!	!	!LO:TX:a:t=3	!	!	!	!	!	!	!
!	!	!	!	!LO:N:vis=00	!	!	!	!LO:N:vis=00	!	!LO:N:vis=0	!	!	!	!	!
8BB-/L	p	8B-/L	.	0r	.	8b-`\L	.	1r	.	1r	.	.	.	8b-`\L	.
8BB-/	.	8B-/	.	.	.	8cc`\	.	.	.	.	.	.	.	8cc`\	.
8BB-/	.	8B-/	.	.	.	8dd`\	.	.	.	.	.	.	.	8dd`\	.
8BB-/J	.	8B-/J	.	.	.	8ee-`\J	.	.	.	.	.	.	.	8ee-`\J	.
=78	=78	=78	=78	=78	=78	=78	=78	=78	=78	=78	=78	=78	=78	=78	=78
8BB-/L	.	8B-/L	.	.	.	4dd\	.	.	.	.	.	.	.	4dd\	.
8BB-/	.	8B-/	.	.	.	.	.	.	.	.	.	.	.	.	.
8BB-/	.	8B-/	.	.	.	(32cc\LLL	.	.	.	.	.	.	.	4r	.
.	.	.	.	.	.	32dd\JJ	.	.	.	.	.	.	.	.	.
.	.	.	.	.	.	8.ee-\J)	.	.	.	.	.	.	.	.	.
8BB-/J	.	8B-/J	.	.	.	.	.	.	.	.	.	.	.	.	.
=79	=79	=79	=79	=79	=79	=79	=79	=79	=79	=79	=79	=79	=79	=79	=79
8BB-/L	.	8B-/L	.	.	.	(32dd\LLL	.	2r	.	2r	.	.	.	2r	.
.	.	.	.	.	.	32cc\JJ	.	.	.	.	.	.	.	.	.
.	.	.	.	.	.	8.b-\J)	.	.	.	.	.	.	.	.	.
8BB-/	.	8B-/	.	.	.	.	.	.	.	.	.	.	.	.	.
8BB-/	.	8B-/	.	.	.	4r	.	.	.	.	.	.	.	.	.
8BB-/J	.	8B-/J	.	.	.	.	.	.	.	.	.	.	.	.	.
=80	=80	=80	=80	=80	=80	=80	=80	=80	=80	=80	=80	=80	=80	=80	=80
!	!	!	!	!	!	!	!	!	!	!	!	!LO:N:vis=00	!	!	!
8BB-/L	f	8B-/L	fp	.	.	4.d/ 4.b-/	f	2B-/	.	2f\	.	0r	.	4.b-/	f
8BB-/	.	8B-/	.	.	.	.	.	.	.	.	.	.	.	.	.
8BB-/	.	8B-/	.	.	.	.	.	.	.	.	.	.	.	.	.
8BB-/J	.	8B-/J	.	.	.	8f/	p	.	.	.	.	.	.	8f/	p
=81	=81	=81	=81	=81	=81	=81	=81	=81	=81	=81	=81	=81	=81	=81	=81
!	!	!	!	!	!	!	!	!LO:TX:a:t=3	!	!	!	!	!	!	!
!	!	!	!	!LO:N:vis=0	!	!	!	!LO:N:vis=0	!	!LO:N:vis=0	!	!	!	!	!
8BB-/L	p	8B-/L	.	1r	.	8b-`\L	.	1r	.	1r	.	.	.	8b-`\L	.
8BB-/	.	8B-/	.	.	.	8cc`\	.	.	.	.	.	.	.	8cc`\	.
8BB-/	.	8B-/	.	.	.	8dd`\	.	.	.	.	.	.	.	8dd`\	.
8BB-/J	.	8B-/J	.	.	.	8ee-`\J	.	.	.	.	.	.	.	8ee-`\J	.
!	!	!	!	!	!	!LO:LB:g=original	!	!	!	!	!	!	!	!	!
=82	=82	=82	=82	=82	=82	=82	=82	=82	=82	=82	=82	=82	=82	=82	=82
8BB-/L	.	8B-/L	.	.	.	4dd`\	.	.	.	.	.	.	.	4dd\	.
8BB-/	.	8B-/	.	.	.	.	.	.	.	.	.	.	.	.	.
8BB-/	.	8B-/	.	.	.	(32cc\LLL	.	.	.	.	.	.	.	4r	.
.	.	.	.	.	.	32dd\JJ	.	.	.	.	.	.	.	.	.
.	.	.	.	.	.	8.ee-`\J)	.	.	.	.	.	.	.	.	.
8BB-/J	.	8B-/J	.	.	.	.	.	.	.	.	.	.	.	.	.
=83	=83	=83	=83	=83	=83	=83	=83	=83	=83	=83	=83	=83	=83	=83	=83
8BB-/L	.	8B-/L	.	2r	.	(32dd\LLL	.	2r	.	2r	.	.	.	2r	.
.	.	.	.	.	.	32cc\JJ)	.	.	.	.	.	.	.	.	.
.	.	.	.	.	.	8.b-`\J	.	.	.	.	.	.	.	.	.
8BB-/	.	8B-/	.	.	.	.	.	.	.	.	.	.	.	.	.
8BB-/	.	8B-/	.	.	.	4r	.	.	.	.	.	.	.	.	.
8BB-/J	.	8B-/J	.	.	.	.	.	.	.	.	.	.	.	.	.
!	!	!	!	!	!	!	!	!LO:LB:g=original	!	!	!	!	!	!	!
=84	=84	=84	=84	=84	=84	=84	=84	=84	=84	=84	=84	=84	=84	=84	=84
8BB-/L	f	8B-/L	fp	4.d/ 4.b-/	f	4.f/ 4.dd/	f	2B-/	.	2f\	.	4.b-\	.	4.dd\	p
8BB-/	.	8B-/	.	.	.	.	.	.	.	.	.	.	.	.	.
8BB-/	.	8B-/	.	.	.	.	.	.	.	.	.	.	.	.	.
8BB-/J	.	8B-/J	.	8f/	p	8b-\	.	.	.	.	.	8f/	.	8b-\	f
!	!	!	!	!	!	!	!	!	!	!	!	!LO:LB:g=original	!	!	!
=85	=85	=85	=85	=85	=85	=85	=85	=85	=85	=85	=85	=85	=85	=85	=85
!	!	!	!	!	!	!	!	!LO:N:vis=0	!	!LO:N:vis=0	!	!	!	!	!
8BB-/L	p	8B-/L	.	8b-`\L	.	8dd`\L	.	1r	.	1r	.	8b-`\L	.	8dd`\L	.
8BB-/	.	8B-/	.	8cc`\	.	8ee-`\	.	.	.	.	.	8cc`\	.	8ee-`\	.
8BB-/	.	8B-/	.	8dd`\	.	8ff`\	.	.	.	.	.	8dd`\	.	8ff`\	.
8BB-/J	.	8B-/J	.	8ee-`\J	.	8gg`\J	.	.	.	.	.	8ee-`\J	.	8gg`\J	.
!LO:LB:g=original	!	!LO:LB:g=original	!	!	!	!	!	!	!	!	!	!	!	!LO:LB:g=original	!
=86	=86	=86	=86	=86	=86	=86	=86	=86	=86	=86	=86	=86	=86	=86	=86
8BB-/L	.	8B-/L	.	4dd\	.	4ff\	.	.	.	.	.	4dd`\	.	4ff`\	.
8BB-/	.	8B-/	.	.	.	.	.	.	.	.	.	.	.	.	.
8BB-/	.	8B-/	.	32cc\LLL	.	(32ee-\LLL	.	.	.	.	.	4r	.	4r	.
.	.	.	.	32dd\JJ	.	32ff\JJ	.	.	.	.	.	.	.	.	.
.	.	.	.	8.ee-\J	.	8.gg\J)	.	.	.	.	.	.	.	.	.
8BB-/J	.	8B-/J	.	.	.	.	.	.	.	.	.	.	.	.	.
=87	=87	=87	=87	=87	=87	=87	=87	=87	=87	=87	=87	=87	=87	=87	=87
8BB-/L	.	8B-/L	.	32dd\LLL	.	(32ff\LLL	.	2r	.	2r	.	2r	.	2r	.
.	.	.	.	32cc\JJ	.	32ee-\JJ	.	.	.	.	.	.	.	.	.
.	.	.	.	8.b-\J	.	8.dd\J)	.	.	.	.	.	.	.	.	.
8BB-/	.	8B-/	.	.	.	.	.	.	.	.	.	.	.	.	.
8BB-/	.	8B-/	.	4r	.	4r	.	.	.	.	.	.	.	.	.
8BB-/J	.	8B-/J	.	.	.	.	.	.	.	.	.	.	.	.	.
!	!	!	!	!LO:LB:g=original	!	!	!	!	!	!LO:LB:g=original	!	!	!	!	!
=88	=88	=88	=88	=88	=88	=88	=88	=88	=88	=88	=88	=88	=88	=88	=88
8BB-/L	f	8B-/L	fp	4.d/ 4.b-/	f	4.f/ 4.dd/	f	2B-/	.	2f\	.	4.b-\	.	4.dd\	.
8BB-/	.	8B-/	.	.	.	.	.	.	.	.	.	.	.	.	.
8BB-/	.	8B-/	.	.	.	.	.	.	.	.	.	.	.	.	.
8BB-/J	.	8B-/J	.	8f/	p	8b-/	.	.	.	.	.	8f/	.	8b-\	.
=89	=89	=89	=89	=89	=89	=89	=89	=89	=89	=89	=89	=89	=89	=89	=89
!	!	!	!	!	!	!	!	!LO:N:vis=0	!	!LO:N:vis=0	!	!	!	!	!
8BB-/L	p	8B-/L	.	8b-`\L	.	8dd`\L	.	1r	.	1r	.	8b-`\L	.	8dd`\L	.
8BB-/	.	8B-/	.	8cc`\	.	8ee-`\	.	.	.	.	.	8cc`\	.	8ee-`\	.
8BB-/	.	8B-/	.	8dd`\	.	8ff`\	.	.	.	.	.	8dd`\	.	8ff`\	.
8BB-/J	.	8B-/J	.	8ee-`\J	.	8gg`\J	.	.	.	.	.	8ee-`\J	.	8gg`\J	.
!	!	!	!	!	!	!LO:LB:g=original	!	!	!	!	!	!	!	!	!
=90	=90	=90	=90	=90	=90	=90	=90	=90	=90	=90	=90	=90	=90	=90	=90
8BB-/L	.	8B-/L	.	4dd\	.	4ff\	.	.	.	.	.	4dd\	.	4ff\	.
8BB-/	.	8B-/	.	.	.	.	.	.	.	.	.	.	.	.	.
8BB-/	.	8B-/	.	32cc\LLL	.	(32ee-\LLL	.	.	.	.	.	4r	.	4r	.
.	.	.	.	32dd\JJ	.	32ff\JJ	.	.	.	.	.	.	.	.	.
.	.	.	.	8.ee-\J	.	8.gg\J)	.	.	.	.	.	.	.	.	.
8BB-/J	.	8B-/J	.	.	.	.	.	.	.	.	.	.	.	.	.
=91	=91	=91	=91	=91	=91	=91	=91	=91	=91	=91	=91	=91	=91	=91	=91
!	!	!	!	!	!	!	!	!	!	!	!	!LO:N:vis=00	!	!LO:N:vis=00	!
8BB-/L	.	8B-/L	.	32dd\LLL	.	(32ff\LLL	.	2r	.	2r	.	0r	.	0r	.
.	.	.	.	32cc\JJ	.	32ee-\JJ	.	.	.	.	.	.	.	.	.
.	.	.	.	8.b-\J	.	8.dd\J)	.	.	.	.	.	.	.	.	.
8BB-/	.	8B-/	.	.	.	.	.	.	.	.	.	.	.	.	.
8BB-/	.	8B-/	.	4r	.	4r	.	.	.	.	.	.	.	.	.
8BB-/J	.	8B-/J	.	.	.	.	.	.	.	.	.	.	.	.	.
*Xtremolo	*	*Xtremolo	*	*	*	*	*	*	*	*	*	*	*	*	*
=92	=92	=92	=92	=92	=92	=92	=92	=92	=92	=92	=92	=92	=92	=92	=92
!	!	!	!LO:DY:t=forti	!	!	!	!LO:DY:rj	!	!	!	!	!	!	!	!
4.BB-/	.	16d\LL	f	16d/LL	.	4.B-/	f	[2B-/	f	[2B-/	f	.	.	.	.
.	.	16b-\	.	16b-/	.	.	.	.	.	.	.	.	.	.	.
.	.	16d\	.	16d/	.	.	.	.	.	.	.	.	.	.	.
.	.	16b-\JJ	.	16b-/JJ	f	.	.	.	.	.	.	.	.	.	.
.	.	16d\LL	.	16d/LL	.	.	.	.	.	.	.	.	.	.	.
.	.	16b-\	.	16b-/	.	.	.	.	.	.	.	.	.	.	.
8C/	.	16d\	.	16d/	.	8c/	p	.	.	.	.	.	.	.	.
.	.	16b-\JJ	.	16b-/JJ	.	.	.	.	.	.	.	.	.	.	.
=93	=93	=93	=93	=93	=93	=93	=93	=93	=93	=93	=93	=93	=93	=93	=93
*	*	*	*	*tremolo	*	*	*	*	*	*	*	*	*	*	*
!	!	!	!	!LO:SIC:o=:v:nieczytelny napis	!	!	!	!	!	!	!	!	!	!	!
8D\L	.	16d\LL	.	16d/ 16b-/LL	f	8d/L	.	2B-/_	.	2B-/_	.	.	.	.	.
.	.	16b-\	.	16d/ 16b-/	.	.	.	.	.	.	.	.	.	.	.
8E-\	.	16d\	.	16d/ 16b-/	.	8e-/	.	.	.	.	.	.	.	.	.
.	.	16b-\JJ	.	16d/ 16b-/	.	.	.	.	.	.	.	.	.	.	.
8F\	.	16d\LL	.	16d/ 16b-/	.	8f/	.	.	.	.	.	.	.	.	.
.	.	16b-\	.	16d/ 16b-/	.	.	.	.	.	.	.	.	.	.	.
8G\J	.	16d\	.	16d/ 16b-/	.	8g/J	.	.	.	.	.	.	.	.	.
.	.	16b-\JJ	.	16d/ 16b-/JJ	.	.	.	.	.	.	.	.	.	.	.
=94	=94	=94	=94	=94	=94	=94	=94	=94	=94	=94	=94	=94	=94	=94	=94
(8A-X\L	.	16d\LL	.	16d/ 16b-/LL	.	(8a-X/L	.	2B-/_	.	2B-/_	.	.	.	.	.
.	.	16b-\	.	16d/ 16b-/	.	.	.	.	.	.	.	.	.	.	.
8G\)	.	16d\	.	16d/ 16b-/	.	8g/J)	.	.	.	.	.	.	.	.	.
.	.	16b-\JJ	.	16d/ 16b-/	.	.	.	.	.	.	.	.	.	.	.
8F\	.	16d\LL	.	16d/ 16b-/	.	8f`/L	.	.	.	.	.	.	.	.	.
.	.	16b-\	.	16d/ 16b-/	.	.	.	.	.	.	.	.	.	.	.
8G\J	.	16d\	.	16d/ 16b-/	.	8g`/J	.	.	.	.	.	.	.	.	.
.	.	16b-\JJ	.	16d/ 16b-/JJ	.	.	.	.	.	.	.	.	.	.	.
!LO:LB:g=original	!	!	!	!	!	!	!	!	!	!	!	!	!	!	!
=95	=95	=95	=95	=95	=95	=95	=95	=95	=95	=95	=95	=95	=95	=95	=95
8A-\L	.	16d\LL	.	16d/ 16b-/LL	.	(8a-X/L	.	2B-/]	.	2B-/]	.	2r	.	2r	.
.	.	16b-\	.	16d/ 16b-/	.	.	.	.	.	.	.	.	.	.	.
8F\	.	16d\	.	16d/ 16b-/	.	8f/)	.	.	.	.	.	.	.	.	.
.	.	16b-\JJ	.	16d/ 16b-/	.	.	.	.	.	.	.	.	.	.	.
!	!	!LO:LB:g=original	!	!	!	!	!	!	!	!	!	!	!	!	!
8D`\	.	16d\LL	.	16d/ 16b-/	.	8d`/	.	.	.	.	.	.	.	.	.
.	.	16b-\	.	16d/ 16b-/	.	.	.	.	.	.	.	.	.	.	.
8BB-`\J	.	16d\	.	16d/ 16b-/	.	8B-`/J	.	.	.	.	.	.	.	.	.
.	.	16b-\JJ	.	16d/ 16b-/JJ	.	.	.	.	.	.	.	.	.	.	.
!	!	!	!	!LO:LB:g=original	!	!	!	!	!	!	!	!	!	!	!
=96	=96	=96	=96	=96	=96	=96	=96	=96	=96	=96	=96	=96	=96	=96	=96
*	*	*	*	*Xtremolo	*	*	*	*2\right	*	*	*	*	*	*	*
!	!	!	!	!	!	!LO:TX:a:t=P:problem=mixed beam	!	!	!	!	!	!	!	!	!
[2E-\	p	16e-\LL	p	16e-/LL	.	8e-/L	.	[2e-\	p	[2e-\	p	8r	.	8r	.
.	.	16b-\	.	16b-/	.	.	.	.	.	.	.	.	.	.	.
.	.	16e-\	.	16e-/	.	8ee-\J	p	.	.	.	.	8gg\L	.	(8eee-\L	.
.	.	16b-\JJ	.	16b-/JJ	p	.	.	.	.	.	.	.	.	.	.
.	.	16e-\LL	.	16e-/LL	.	8b-`\L	.	.	.	.	.	8gg\	.	8bb-\)	.
.	.	16b-\	.	16b-/	.	.	.	.	.	.	.	.	.	.	.
.	.	16e-\	.	16e-/	.	8b-`\J	.	.	.	.	.	8gg\J	.	8bb-`\J	.
.	.	16b-\JJ	.	16b-/JJ	.	.	.	.	.	.	.	.	.	.	.
!	!	!	!	!	!	!LO:LB:g=original	!	!	!	!	!	!	!	!	!
=97	=97	=97	=97	=97	=97	=97	=97	=97	=97	=97	=97	=97	=97	=97	=97
2E-\_	.	16e-\LL	.	16e-/LL	.	8.b-/L	.	2e-\_	.	2e-\_	.	(8.gg\L	.	(8.ccc\L	.
.	.	16b-\	.	16b-/	.	.	.	.	.	.	.	.	.	.	.
.	.	16e-\	.	16e-/	.	.	.	.	.	.	.	.	.	.	.
.	.	16b-\JJ	.	16b-/JJ	.	16a-/Jk	.	.	.	.	.	16ff\Jk)	.	16aa-\Jk)	.
.	.	16e-\LL	.	16e-/LL	.	8g\L	.	.	.	.	.	8ee-\L	.	8gg\L	.
.	.	16b-\	.	16b-/	.	.	.	.	.	.	.	.	.	.	.
.	.	16e-\	.	16e-/	.	8ee-\J	.	.	.	.	.	8gg\J	.	8bb-\J	.
.	.	16b-\JJ	.	16b-/JJ	.	.	.	.	.	.	.	.	.	.	.
=98	=98	=98	=98	=98	=98	=98	=98	=98	=98	=98	=98	=98	=98	=98	=98
*	*	*	*	*tremolo	*	*	*	*	*	*	*	*	*	*	*
2E-\_	.	16e-\LL	.	16e-/ 16b-/LL	.	(8.b-\L	.	2e-\_	.	2e-\_	.	(8.gg\L	.	(8.bb-\L	.
.	.	16b-\	.	16e-/ 16b-/	.	.	.	.	.	.	.	.	.	.	.
.	.	16e-\	.	16e-/ 16b-/	.	.	.	.	.	.	.	.	.	.	.
.	.	16b-\JJ	.	16e-/ 16b-/	.	16a-\Jk)	.	.	.	.	.	16ff\Jk)	.	16aa-\Jk)	.
.	.	16e-\LL	.	16e-/ 16b-/	.	8g\L	.	.	.	.	.	8ee-\L	.	8gg\L	.
.	.	16b-\	.	16e-/ 16b-/	.	.	.	.	.	.	.	.	.	.	.
.	.	16e-\	.	16e-/ 16b-/	.	8ee-\J	.	.	.	.	.	8gg\J	.	8bb-\J	.
.	.	16b-\JJ	.	16e-/ 16b-/JJ	.	.	.	.	.	.	.	.	.	.	.
=99	=99	=99	=99	=99	=99	=99	=99	=99	=99	=99	=99	=99	=99	=99	=99
!LO:TX:a:t=vi	!	!	!	!	!	!	!	!	!	!	!	!	!	!	!
2E-\]	.	16e-\LL	.	16e-/ 16b-/LL	.	(8.b-\L	.	2e-\]	.	2e-\]	.	(8.gg\L	.	8.bb-\L	.
.	.	16b-\	.	16e-/ 16b-/	.	.	.	.	.	.	.	.	.	.	.
.	.	16e-\	.	16e-/ 16b-/	.	.	.	.	.	.	.	.	.	.	.
.	.	16b-\JJ	.	16e-/ 16b-/	.	16a-\Jk)	.	.	.	.	.	16ff\Jk)	.	16aa-\Jk	.
.	.	16e-\LL	.	16e-/ 16b-/	.	4g/	.	.	.	.	.	4ee-\	.	4gg\	.
.	.	16b-\	.	16e-/ 16b-/	.	.	.	.	.	.	.	.	.	.	.
.	.	16e-\	.	16e-/ 16b-/	.	.	.	.	.	.	.	.	.	.	.
.	.	16b-\JJ	.	16e-/ 16b-/JJ	.	.	.	.	.	.	.	.	.	.	.
*	*	*	*	*Xtremolo	*	*	*	*	*	*	*	*	*	*	*
!	!	!	!	!	!	!	!	!	!	!	!	!LO:LB:g=original	!	!LO:LB:g=original	!
=100	=100	=100	=100	=100	=100	=100	=100	=100	=100	=100	=100	=100	=100	=100	=100
!LO:TX:a:t=de	!	!	!	!	!	!	!LO:DY:a:t=for	!LO:TX:a:t=4	!	!	!	!LO:N:vis=00	!	!LO:N:vis=00	!
!LO:SIC:o:s=:v:takty 100-107 dopisane na dole strony	!	!	!	!	!	!	!	!LO:N:vis=00	!	!LO:N:vis=00	!	!	!	!	!
4.C/	.	16en\LL	f	16en/LL	.	4.c/	f	0r	.	0r	.	0r	.	0r	.
.	.	16cc\	.	16cc/	.	.	.	.	.	.	.	.	.	.	.
.	.	16e\	.	16e/	f	.	.	.	.	.	.	.	.	.	.
.	.	16cc\JJ	.	16cc/JJ	.	.	.	.	.	.	.	.	.	.	.
.	.	16e\LL	.	16e/LL	.	.	.	.	.	.	.	.	.	.	.
.	.	16cc\	.	16cc/	.	.	.	.	.	.	.	.	.	.	.
8D/	.	16e\	.	16e/	.	8d/	.	.	.	.	.	.	.	.	.
.	.	16cc\JJ	.	16cc/JJ	.	.	.	.	.	.	.	.	.	.	.
!	!	!LO:LB:g=original	!	!	!	!	!	!	!	!	!	!	!	!	!
=101	=101	=101	=101	=101	=101	=101	=101	=101	=101	=101	=101	=101	=101	=101	=101
8En\L	.	16en\LL	.	16e-/LL	.	8en/L	.	.	.	.	.	.	.	.	.
.	.	16cc\	.	16cc/	.	.	.	.	.	.	.	.	.	.	.
8F\	.	16e\	.	16e-/	.	8f/	.	.	.	.	.	.	.	.	.
.	.	16cc\JJ	.	16cc/JJ	.	.	.	.	.	.	.	.	.	.	.
8G\	.	16e\LL	.	16e-/LL	.	8g/	.	.	.	.	.	.	.	.	.
.	.	16cc\	.	16cc/	.	.	.	.	.	.	.	.	.	.	.
8A-\J	.	16e\	.	16e-/	.	8an/J	.	.	.	.	.	.	.	.	.
.	.	16cc\JJ	.	16cc/JJ	.	.	.	.	.	.	.	.	.	.	.
=102	=102	=102	=102	=102	=102	=102	=102	=102	=102	=102	=102	=102	=102	=102	=102
*	*	*	*	*tremolo	*	*	*	*	*	*	*	*	*	*	*
8B-\L	.	16en\LL	.	16e-/ 16cc/LL	.	(8b-/L	.	.	.	.	.	.	.	.	.
.	.	16cc\	.	16e-/ 16cc/	.	.	.	.	.	.	.	.	.	.	.
8An\J	.	16e\	.	16e-/ 16cc/	.	8an/J)	.	.	.	.	.	.	.	.	.
.	.	16cc\JJ	.	16e-/ 16cc/	.	.	.	.	.	.	.	.	.	.	.
8G\L	.	16e\LL	.	16e-/ 16cc/	.	8g`/L	.	.	.	.	.	.	.	.	.
.	.	16cc\	.	16e-/ 16cc/	.	.	.	.	.	.	.	.	.	.	.
8A\J	.	16e\	.	16e-/ 16cc/	.	8a`/J	.	.	.	.	.	.	.	.	.
.	.	16cc\JJ	.	16e-/ 16cc/JJ	.	.	.	.	.	.	.	.	.	.	.
!	!	!	!	!LO:LB:g=original	!	!LO:PB:g=original	!	!	!	!	!	!	!	!	!
=103	=103	=103	=103	=103	=103	=103	=103	=103	=103	=103	=103	=103	=103	=103	=103
8.B-\L	.	16en\LL	.	16e-/ 16cc/LL	.	(8.b-/L	.	.	.	.	.	.	.	.	.
.	.	16cc\	.	16e-/ 16cc/	.	.	.	.	.	.	.	.	.	.	.
.	.	16e\	.	16e-/ 16cc/	.	.	.	.	.	.	.	.	.	.	.
!	!	!	!	!	!	!LO:TX:a:t=g	!	!	!	!	!	!	!	!	!
!	!	!	!	!	!	!LO:SIC:o=:v:niejednoznaczna wysokość dźwięku	!	!	!	!	!	!	!	!	!
16G\Jk	.	16cc\JJ	.	16e-/ 16cc/	.	16g/Jk)	.	.	.	.	.	.	.	.	.
8En\L	.	16e\LL	.	16e-/ 16cc/	.	8en/L	.	.	.	.	.	.	.	.	.
.	.	16cc\	.	16e-/ 16cc/	.	.	.	.	.	.	.	.	.	.	.
8C\J	.	16e\	.	16e-/ 16cc/	.	8c/J	.	.	.	.	.	.	.	.	.
.	.	16cc\JJ	.	16e-/ 16cc/JJ	.	.	.	.	.	.	.	.	.	.	.
*	*	*	*	*Xtremolo	*	*	*	*	*	*	*	*	*	*	*
=104	=104	=104	=104	=104	=104	=104	=104	=104	=104	=104	=104	=104	=104	=104	=104
!	!	!	!	!	!	!LO:TX:a:t=P:problem=mixed beam	!	!	!	!	!	!	!	!	!
2F\	.	16f\LL	p	16f/LL	.	8f/L	p	[2f\	p	[2f\	p	8r	.	8r	.
.	.	16cc\	.	16cc/	.	.	.	.	.	.	.	.	.	.	.
!	!	!	!	!	!	!	!	!	!	!	!	!LO:SIC:o=:v:szlaczek	!	!	!
.	.	16f\	.	16f/	f	(8ff\J	.	.	.	.	.	8aan\L	.	(8fff\L	.
.	.	16cc\JJ	.	16cc/JJ	.	.	.	.	.	.	.	.	.	.	.
.	.	16f\LL	.	16f/LL	.	8cc\L)	.	.	.	.	.	8aa\	.	8ccc\)	.
.	.	16cc\	.	16cc/	.	.	.	.	.	.	.	.	.	.	.
.	.	16f\	.	16f/	.	8cc`\J	.	.	.	.	.	8aa\J	.	8ccc`\J	.
.	.	16cc\JJ	.	16cc/JJ	.	.	.	.	.	.	.	.	.	.	.
=105	=105	=105	=105	=105	=105	=105	=105	=105	=105	=105	=105	=105	=105	=105	=105
2F\	.	16f\LL	.	16f/LL	.	(8.cc\L	.	2f\_	.	2f\_	.	(8.aa-\L	.	(8.ccc\L	.
.	.	16cc\	.	16cc/	.	.	.	.	.	.	.	.	.	.	.
.	.	16f\	.	16f/	.	.	.	.	.	.	.	.	.	.	.
.	.	16cc\JJ	.	16cc/JJ	.	16b-\Jk)	.	.	.	.	.	16gg\Jk)	.	16bb-\Jk)	.
.	.	16f\LL	.	16f/LL	.	8an\L	.	.	.	.	.	8ff\L	.	8aan\L	.
.	.	16cc\	.	16cc/	.	.	.	.	.	.	.	.	.	.	.
.	.	16f\	.	16f/	.	8ff\J	.	.	.	.	.	8aa-\J	.	8ccc\J	.
.	.	16cc\JJ	.	16cc/JJ	.	.	.	.	.	.	.	.	.	.	.
!	!	!	!	!	!	!	!	!LO:LB:g=original	!	!	!	!	!	!	!
=106	=106	=106	=106	=106	=106	=106	=106	=106	=106	=106	=106	=106	=106	=106	=106
*	*	*	*	*tremolo	*	*	*	*	*	*	*	*	*	*	*
2F\	.	16f\LL	.	16f/ 16cc/LL	.	(8.cc\L	.	2f\_	.	2f\_	.	(8.aan\L	.	(8.ccc\L	.
.	.	16cc\	.	16f/ 16cc/	.	.	.	.	.	.	.	.	.	.	.
.	.	16f\	.	16f/ 16cc/	.	.	.	.	.	.	.	.	.	.	.
.	.	16cc\JJ	.	16f/ 16cc/	.	16b-\Jk)	.	.	.	.	.	16gg\Jk)	.	16bb-\Jk)	.
!	!	!LO:LB:g=original	!	!	!	!	!	!	!	!	!	!	!	!	!
.	.	16f\LL	.	16f/ 16cc/	.	8an\L	.	.	.	.	.	8ff\L	.	8aan\L	.
.	.	16cc\	.	16f/ 16cc/	.	.	.	.	.	.	.	.	.	.	.
.	.	16f\	.	16f/ 16cc/	.	8ff\J	.	.	.	.	.	8aa\J	.	8ccc\J	.
.	.	16cc\JJ	.	16f/ 16cc/JJ	.	.	.	.	.	.	.	.	.	.	.
=107	=107	=107	=107	=107	=107	=107	=107	=107	=107	=107	=107	=107	=107	=107	=107
!LO:TX:a:t=re	!	!	!	!	!	!	!	!	!	!	!	!	!	!	!
2F\	.	16f\LL	.	16f/ 16cc/LL	.	(8.cc\L	.	2f\]	.	2f\]	.	(8.aan\L	.	8.ccc\L	.
.	.	16cc\	.	16f/ 16cc/	.	.	.	.	.	.	.	.	.	.	.
.	.	16f\	.	16f/ 16cc/	.	.	.	.	.	.	.	.	.	.	.
.	.	16cc\JJ	.	16f/ 16cc/	.	16b-\Jk)	.	.	.	.	.	16gg\Jk)	.	16bb-\Jk	.
.	.	16f\LL	.	16f/ 16cc/	.	4an\	.	.	.	.	.	4ff\	.	4aan\	.
.	.	16cc\	.	16f/ 16cc/	.	.	.	.	.	.	.	.	.	.	.
.	.	16f\	.	16f/ 16cc/	.	.	.	.	.	.	.	.	.	.	.
.	.	16cc\JJ	.	16f/ 16cc/JJ	.	.	.	.	.	.	.	.	.	.	.
*	*	*	*	*Xtremolo	*	*	*	*	*	*	*	*	*	*	*
!	!	!	!	!	!	!	!	!	!	!LO:LB:g=original	!	!	!	!	!
=108	=108	=108	=108	=108	=108	=108	=108	=108	=108	=108	=108	=108	=108	=108	=108
!LO:TX:a:t=tro	!	!	!	!	!	!	!LO:DY:a:t=for	!LO:TX:a:t=28	!	!LO:TX:a:t=28	!	!LO:TX:a:t=28	!	!LO:TX:a:t=28	!
!	!	!	!	!	!	!	!	!LO:N:vis=00	!	!LO:N:vis=00	!	!LO:N:vis=00	!	!LO:N:vis=00	!
4.D\	f	16f#X\LL	f	16f#X/LL	.	4.c/	f	0r	.	0r	.	0r	.	0r	.
.	.	16dd\	.	16dd/	.	.	.	.	.	.	.	.	.	.	.
.	.	16f#\	.	16f#/	f	.	.	.	.	.	.	.	.	.	.
.	.	16dd\JJ	.	16dd/JJ	.	.	.	.	.	.	.	.	.	.	.
.	.	16f#\LL	.	16f#/LL	.	.	.	.	.	.	.	.	.	.	.
.	.	16dd\	.	16dd/	.	.	.	.	.	.	.	.	.	.	.
8En\	.	16f#\	.	16f#/	.	8en/	.	.	.	.	.	.	.	.	.
.	.	16dd\JJ	.	16dd/JJ	.	.	.	.	.	.	.	.	.	.	.
=109	=109	=109	=109	=109	=109	=109	=109	=109	=109	=109	=109	=109	=109	=109	=109
8F#X\L	.	16f#X\LL	.	16f/LL	.	8f#X/L	.	.	.	.	.	.	.	.	.
.	.	16dd\	.	16dd/	.	.	.	.	.	.	.	.	.	.	.
8G\	.	16f#\	.	16f/	.	8g/	.	.	.	.	.	.	.	.	.
.	.	16dd\JJ	.	16dd/JJ	.	.	.	.	.	.	.	.	.	.	.
8An\	.	16f#\LL	.	16f/LL	.	8a-/	.	.	.	.	.	.	.	.	.
.	.	16dd\	.	16dd/	.	.	.	.	.	.	.	.	.	.	.
8B-\J	.	16f#\	.	16f/	.	8b-/J	.	.	.	.	.	.	.	.	.
.	.	16dd\JJ	.	16dd/JJ	.	.	.	.	.	.	.	.	.	.	.
!	!	!	!	!LO:LB:g=original	!	!LO:LB:g=original	!	!	!	!	!	!	!	!	!
=110	=110	=110	=110	=110	=110	=110	=110	=110	=110	=110	=110	=110	=110	=110	=110
(8c\L	.	16f#X\LL	.	16f#X/LL	.	(8.cc/L	.	.	.	.	.	.	.	.	.
.	.	16dd\	.	16dd/	.	.	.	.	.	.	.	.	.	.	.
8B-\)	.	16f#\	.	16f#/	.	.	.	.	.	.	.	.	.	.	.
.	.	16dd\JJ	.	16dd/JJ	.	16b-/Jk)	.	.	.	.	.	.	.	.	.
8A-\	.	16f#\LL	.	16f#/LL	.	8an/L	.	.	.	.	.	.	.	.	.
.	.	16dd\	.	16dd/	.	.	.	.	.	.	.	.	.	.	.
8B-\J	.	16f#\	.	16f#/	.	8b-/J	.	.	.	.	.	.	.	.	.
.	.	16dd\JJ	.	16dd/JJ	.	.	.	.	.	.	.	.	.	.	.
=111	=111	=111	=111	=111	=111	=111	=111	=111	=111	=111	=111	=111	=111	=111	=111
(8c\L	.	16f#X\LL	.	16f/LL	.	(8cc/L	.	.	.	.	.	.	.	.	.
.	.	16dd\	.	16dd/	.	.	.	.	.	.	.	.	.	.	.
8An\)	.	16f#\	.	16f/	.	8an/J)	.	.	.	.	.	.	.	.	.
.	.	16dd\JJ	.	16dd/JJ	.	.	.	.	.	.	.	.	.	.	.
!	!	!LO:LB:g=original	!	!	!	!	!	!	!	!	!	!	!	!	!
8F#X`\	.	16f#\LL	.	16f/LL	.	8f#X/L	.	.	.	.	.	.	.	.	.
.	.	16dd\	.	16dd/	.	.	.	.	.	.	.	.	.	.	.
8D`\J	.	16f#\	.	16f/	.	8d/J	.	.	.	.	.	.	.	.	.
.	.	16dd\JJ	.	16dd/JJ	.	.	.	.	.	.	.	.	.	.	.
=112	=112	=112	=112	=112	=112	=112	=112	=112	=112	=112	=112	=112	=112	=112	=112
*	*	*tremolo	*	*	*	*	*	*	*	*	*	*	*	*	*
!	!	!	!LO:DY:t=pia	!	!	!	!	!LO:N:vis=00	!	!LO:N:vis=00	!	!LO:N:vis=00	!	!LO:N:vis=00	!
8G\	.	8g\L	p	8b-/L	.	8g/	.	0r	.	0r	.	0r	.	0r	.
!	!	!	!	!	!LO:DY:t=pia	!	!	!	!	!	!	!	!	!	!
8r	.	8g\	.	8b-/	p	8r	.	.	.	.	.	.	.	.	.
.	.	.	.	.	.	8qqaa-/	p	.	.	.	.	.	.	.	.
4r	.	8g\	.	8b-/	.	(8gg\L	.	.	.	.	.	.	.	.	.
.	.	8g\J	.	8b-/J	.	16ff#X\L	.	.	.	.	.	.	.	.	.
.	.	.	.	.	.	16gg\JJ)	.	.	.	.	.	.	.	.	.
=113	=113	=113	=113	=113	=113	=113	=113	=113	=113	=113	=113	=113	=113	=113	=113
!LO:TX:a:t=23	!	!	!	!	!	!	!	!	!	!	!	!	!	!	!
!LO:N:vis=00	!	!	!	!	!	!	!	!	!	!	!	!	!	!	!
0r	.	8g\L	.	8b-/L	.	8bb-\	.	.	.	.	.	.	.	.	.
.	.	8g\	.	8b-/	.	8r	.	.	.	.	.	.	.	.	.
.	.	.	.	.	.	8qqccc/	.	.	.	.	.	.	.	.	.
.	.	8g\	.	8b-/	.	8bb-\L	.	.	.	.	.	.	.	.	.
.	.	8g\J	.	8b-/J	.	16aa-\L	.	.	.	.	.	.	.	.	.
.	.	.	.	.	.	16bb-\JJ	.	.	.	.	.	.	.	.	.
=114	=114	=114	=114	=114	=114	=114	=114	=114	=114	=114	=114	=114	=114	=114	=114
.	.	8g\L	.	8b-/L	.	8ddd\	.	.	.	.	.	.	.	.	.
.	.	8g\	.	8b-/	.	8r	.	.	.	.	.	.	.	.	.
.	.	.	.	.	.	8qqaa-/	.	.	.	.	.	.	.	.	.
.	.	8g\	.	8b-/	.	8bb-\L	.	.	.	.	.	.	.	.	.
.	.	8g\J	.	8b-/J	.	(16aa-\L	.	.	.	.	.	.	.	.	.
.	.	.	.	.	.	16bb-\JJ)	.	.	.	.	.	.	.	.	.
=115	=115	=115	=115	=115	=115	=115	=115	=115	=115	=115	=115	=115	=115	=115	=115
*	*	*	*	*tremolo	*	*	*	*	*	*	*	*	*	*	*
.	.	8g\L	.	8b-/LL	.	8gg\	.	.	.	.	.	.	.	.	.
.	.	8g\	.	8b-/	.	8r	.	.	.	.	.	.	.	.	.
.	.	8g\	.	8b-/	.	4r	.	.	.	.	.	.	.	.	.
.	.	8g\J	.	8b-/JJ	.	.	.	.	.	.	.	.	.	.	.
*	*	*	*	*Xtremolo	*	*	*	*	*	*	*	*	*	*	*
=116	=116	=116	=116	=116	=116	=116	=116	=116	=116	=116	=116	=116	=116	=116	=116
*	*	*	*	*	*	*2\right	*	*	*	*	*	*	*	*	*
!	!	!	!	!	!	!	!	!LO:N:vis=00	!	!LO:N:vis=00	!	!LO:N:vis=00	!	!LO:N:vis=00	!
.	.	8f#X\L	.	8an/L	.	(2ee-\	.	0r	.	0r	.	0r	.	0r	.
.	.	8f#X\	.	8a/	.	.	.	.	.	.	.	.	.	.	.
.	.	8f#X\	.	8a/	.	.	.	.	.	.	.	.	.	.	.
.	.	8f#X\J	.	8a/J	.	.	.	.	.	.	.	.	.	.	.
!	!	!	!	!LO:LB:g=original	!	!	!	!	!	!	!	!	!	!	!
=117	=117	=117	=117	=117	=117	=117	=117	=117	=117	=117	=117	=117	=117	=117	=117
*	*	*	*	*tremolo	*	*	*	*	*	*	*	*	*	*	*
!LO:N:vis=00	!	!	!	!	!	!	!	!	!	!	!	!	!	!	!
0r	.	8f#X\L	.	8an/L	.	4cc\)	.	.	.	.	.	.	.	.	.
.	.	8f#X\	.	8an/	.	.	.	.	.	.	.	.	.	.	.
.	.	8f#X\	.	8an/	.	4r	.	.	.	.	.	.	.	.	.
.	.	8f#X\J	.	8an/J	.	.	.	.	.	.	.	.	.	.	.
!	!	!	!	!	!	!LO:LB:g=original	!	!	!	!	!	!	!	!	!
=118	=118	=118	=118	=118	=118	=118	=118	=118	=118	=118	=118	=118	=118	=118	=118
.	.	8f#X\L	.	8a-/L	.	(16ff#X\LL	.	.	.	.	.	.	.	.	.
.	.	.	.	.	.	16gg\	.	.	.	.	.	.	.	.	.
.	.	8f#X\	.	8a-/	.	16aa-\	.	.	.	.	.	.	.	.	.
.	.	.	.	.	.	16gg\JJ)	.	.	.	.	.	.	.	.	.
.	.	8f#X\	.	8a-/	.	8ff#`\	.	.	.	.	.	.	.	.	.
.	.	8f#X\J	.	8a-/J	.	8r	.	.	.	.	.	.	.	.	.
=119	=119	=119	=119	=119	=119	=119	=119	=119	=119	=119	=119	=119	=119	=119	=119
.	.	8f#X\L	.	8a-/L	.	8r	.	.	.	.	.	.	.	.	.
.	.	8f#X\	.	8a-/	.	8aan`\L	.	.	.	.	.	.	.	.	.
.	.	8f#X\	.	8a-/	.	8ff#X`\	.	.	.	.	.	.	.	.	.
.	.	8f#X\J	.	8a-/J	.	8cc`\J	.	.	.	.	.	.	.	.	.
*	*	*	*	*Xtremolo	*	*	*	*	*	*	*	*	*	*	*
=120	=120	=120	=120	=120	=120	=120	=120	=120	=120	=120	=120	=120	=120	=120	=120
!	!	!	!	!	!	!	!	!LO:N:vis=00	!	!LO:N:vis=00	!	!LO:N:vis=00	!	!LO:N:vis=00	!
.	.	8fn\L	.	8g/L	.	(8bn\L	.	0r	.	0r	.	0r	.	0r	.
.	.	8fn\	.	8g/	.	16a-\L	.	.	.	.	.	.	.	.	.
.	.	.	.	.	.	16b\JJ	.	.	.	.	.	.	.	.	.
.	.	8fn\	.	8g/	.	8dd\)	.	.	.	.	.	.	.	.	.
.	.	8fn\J	.	8g/J	.	8r	.	.	.	.	.	.	.	.	.
=121	=121	=121	=121	=121	=121	=121	=121	=121	=121	=121	=121	=121	=121	=121	=121
*	*	*	*	*tremolo	*	*	*	*	*	*	*	*	*	*	*
!LO:N:vis=00	!	!	!	!	!	!	!	!	!	!	!	!	!	!	!
0r	.	8fn\L	.	8g/L	.	8bbn\L	.	.	.	.	.	.	.	.	.
.	.	8fn\	.	8g/	.	(16aa-\L	.	.	.	.	.	.	.	.	.
.	.	.	.	.	.	16bb\JJ)	.	.	.	.	.	.	.	.	.
.	.	8fn\	.	8g/	.	8ddd`\	.	.	.	.	.	.	.	.	.
.	.	8fn\J	.	8g/J	.	8r	.	.	.	.	.	.	.	.	.
=122	=122	=122	=122	=122	=122	=122	=122	=122	=122	=122	=122	=122	=122	=122	=122
.	.	8fn\L	.	8g/L	.	(16bn\LL	.	.	.	.	.	.	.	.	.
.	.	.	.	.	.	16cc\	.	.	.	.	.	.	.	.	.
.	.	8fn\	.	8g/	.	16dd\	.	.	.	.	.	.	.	.	.
.	.	.	.	.	.	16cc\JJ)	.	.	.	.	.	.	.	.	.
.	.	8fn\	.	8g/	.	8bn\	.	.	.	.	.	.	.	.	.
.	.	8fn\J	.	8g/J	.	8r	.	.	.	.	.	.	.	.	.
=123	=123	=123	=123	=123	=123	=123	=123	=123	=123	=123	=123	=123	=123	=123	=123
.	.	8fn\L	.	8g/L	.	8r	.	.	.	.	.	.	.	.	.
.	.	8fn\	.	8g/	.	8gg`\L	.	.	.	.	.	.	.	.	.
.	.	8fn\	.	8g/	.	8dd`\	.	.	.	.	.	.	.	.	.
.	.	8fn\J	.	8g/J	.	8bn`\J	.	.	.	.	.	.	.	.	.
*	*	*	*	*Xtremolo	*	*	*	*	*	*	*	*	*	*	*
!	!	!	!	!	!	!LO:LB:g=original	!	!	!	!	!	!	!	!	!
=124	=124	=124	=124	=124	=124	=124	=124	=124	=124	=124	=124	=124	=124	=124	=124
.	.	.	.	.	.	8qqdd/	.	.	.	.	.	.	.	.	.
!	!	!	!	!	!	!	!	!LO:N:vis=00	!	!LO:N:vis=00	!	!LO:N:vis=00	!	!LO:N:vis=00	!
.	.	8en\L	.	8g/L	.	8cc\L	.	0r	.	0r	.	0r	.	0r	.
.	.	8en\	.	8g/	.	(16bn\L	.	.	.	.	.	.	.	.	.
.	.	.	.	.	.	16cc\JJ)	.	.	.	.	.	.	.	.	.
.	.	8en\	.	8g/	.	8een\	.	.	.	.	.	.	.	.	.
.	.	8en\J	.	8g/J	.	8r	.	.	.	.	.	.	.	.	.
=125	=125	=125	=125	=125	=125	=125	=125	=125	=125	=125	=125	=125	=125	=125	=125
.	.	.	.	.	.	8qqddd/	.	.	.	.	.	.	.	.	.
!LO:N:vis=00	!	!	!	!	!	!	!	!	!	!	!	!	!	!	!
0r	.	8e-\L	.	8g/L	.	8ccc\L	.	.	.	.	.	.	.	.	.
.	.	8e-\	.	8g/	.	(16bbn\L	.	.	.	.	.	.	.	.	.
.	.	.	.	.	.	16ccc\JJ)	.	.	.	.	.	.	.	.	.
.	.	8e-\	.	8g/	.	8gg`\	.	.	.	.	.	.	.	.	.
.	.	8e-\J	.	8g/J	.	8r	.	.	.	.	.	.	.	.	.
!	!	!LO:LB:g=original	!	!	!	!	!	!	!	!	!	!	!	!	!
=126	=126	=126	=126	=126	=126	=126	=126	=126	=126	=126	=126	=126	=126	=126	=126
*	*	*	*	*tremolo	*	*	*	*	*	*	*	*	*	*	*
.	.	8e-\L	.	8g/L	.	(16cc\LL	.	.	.	.	.	.	.	.	.
.	.	.	.	.	.	16dd\	.	.	.	.	.	.	.	.	.
.	.	8e-\	.	8g/	.	16een\	.	.	.	.	.	.	.	.	.
.	.	.	.	.	.	16dd\JJ)	.	.	.	.	.	.	.	.	.
.	.	8e-\	.	8g/	.	8cc\	.	.	.	.	.	.	.	.	.
.	.	8e-\J	.	8g/J	.	8r	.	.	.	.	.	.	.	.	.
!	!	!	!	!LO:LB:g=original	!	!	!	!	!	!	!	!	!	!	!
=127	=127	=127	=127	=127	=127	=127	=127	=127	=127	=127	=127	=127	=127	=127	=127
.	.	8e-\L	.	8g/L	.	8r	.	.	.	.	.	.	.	.	.
.	.	8e-\	.	8g/	.	8gg`\L	.	.	.	.	.	.	.	.	.
.	.	8e-\	.	8g/	.	8een`\	.	.	.	.	.	.	.	.	.
.	.	8e-\J	.	8g/J	.	8cc`\J	.	.	.	.	.	.	.	.	.
*	*	*	*	*Xtremolo	*	*	*	*	*	*	*	*	*	*	*
=128	=128	=128	=128	=128	=128	=128	=128	=128	=128	=128	=128	=128	=128	=128	=128
.	.	.	.	.	.	8qqb-/	.	.	.	.	.	.	.	.	.
!	!	!	!	!	!	!	!	!LO:N:vis=00	!	!LO:N:vis=00	!	!LO:N:vis=00	!	!LO:N:vis=00	!
.	.	8e-X\L	.	8f/L	.	8an/L	.	0r	.	0r	.	0r	.	0r	.
.	.	8e-X\	.	8f/	.	(16g/L	.	.	.	.	.	.	.	.	.
.	.	.	.	.	.	16a/JJ)	.	.	.	.	.	.	.	.	.
.	.	8e-X\	.	8f/	.	8cc\	.	.	.	.	.	.	.	.	.
.	.	8e-X\J	.	8f/J	.	8r	.	.	.	.	.	.	.	.	.
=129	=129	=129	=129	=129	=129	=129	=129	=129	=129	=129	=129	=129	=129	=129	=129
.	.	.	.	.	.	8qqbb-/	.	.	.	.	.	.	.	.	.
*	*	*	*	*tremolo	*	*	*	*	*	*	*	*	*	*	*
!LO:N:vis=00	!	!	!	!	!	!	!	!	!	!	!	!	!	!	!
0r	.	8e-X\L	.	8f/L	.	(8aan\L	.	.	.	.	.	.	.	.	.
.	.	8e-X\	.	8f/	.	16gg\L	.	.	.	.	.	.	.	.	.
.	.	.	.	.	.	16aa\JJ)	.	.	.	.	.	.	.	.	.
.	.	8e-X\	.	8f/	.	8ccc\	.	.	.	.	.	.	.	.	.
.	.	8e-X\J	.	8f/J	.	8r	.	.	.	.	.	.	.	.	.
!	!	!	!	!	!	!LO:LB:g=original	!	!	!	!	!	!	!	!	!
=130	=130	=130	=130	=130	=130	=130	=130	=130	=130	=130	=130	=130	=130	=130	=130
.	.	8e-X\L	.	8f/L	.	(16an/LL	.	.	.	.	.	.	.	.	.
.	.	.	.	.	.	16b-/	.	.	.	.	.	.	.	.	.
.	.	8e-X\	.	8f/	.	16cc/	.	.	.	.	.	.	.	.	.
.	.	.	.	.	.	16b-/JJ)	.	.	.	.	.	.	.	.	.
.	.	8e-X\	.	8f/	.	8a/	.	.	.	.	.	.	.	.	.
.	.	8e-X\J	.	8f/J	.	8r	.	.	.	.	.	.	.	.	.
=131	=131	=131	=131	=131	=131	=131	=131	=131	=131	=131	=131	=131	=131	=131	=131
.	.	8e-X\L	.	8f/L	.	8r	.	.	.	.	.	.	.	.	.
.	.	8e-X\	.	8f/	.	8ff`\L	.	.	.	.	.	.	.	.	.
.	.	8e-X\	.	8f/	.	8cc`\	.	.	.	.	.	.	.	.	.
.	.	8e-X\J	.	8f/J	.	8an`\J	.	.	.	.	.	.	.	.	.
*	*	*	*	*Xtremolo	*	*	*	*	*	*	*	*	*	*	*
=132	=132	=132	=132	=132	=132	=132	=132	=132	=132	=132	=132	=132	=132	=132	=132
.	.	.	.	.	.	8qqcc/	.	.	.	.	.	.	.	.	.
!	!	!	!	!	!	!	!	!LO:N:vis=00	!	!LO:N:vis=00	!	!LO:N:vis=00	!	!LO:N:vis=00	!
.	.	8e-X\L	.	8f/L	.	8b-\L	.	0r	.	0r	.	0r	.	0r	.
.	.	8e-X\	.	8f/	.	16a-\L	.	.	.	.	.	.	.	.	.
.	.	.	.	.	.	16b-\JJ	.	.	.	.	.	.	.	.	.
.	.	8e-X\	.	8f/	.	8dd`\	.	.	.	.	.	.	.	.	.
.	.	8e-X\J	.	8f/J	.	8r	.	.	.	.	.	.	.	.	.
=133	=133	=133	=133	=133	=133	=133	=133	=133	=133	=133	=133	=133	=133	=133	=133
.	.	.	.	.	.	8qqee-/	.	.	.	.	.	.	.	.	.
*	*	*	*	*tremolo	*	*	*	*	*	*	*	*	*	*	*
!LO:N:vis=0	!	!	!	!	!	!	!	!	!	!	!	!	!	!	!
1r	.	8e-X\L	.	8f/L	.	8dd\L	.	.	.	.	.	.	.	.	.
.	.	8e-X\	.	8f/	.	16cc\L	.	.	.	.	.	.	.	.	.
.	.	.	.	.	.	16dd\JJ	.	.	.	.	.	.	.	.	.
.	.	8e-X\	.	8f/	.	8ff`\	.	.	.	.	.	.	.	.	.
.	.	8e-X\J	.	8f/J	.	8r	.	.	.	.	.	.	.	.	.
=134	=134	=134	=134	=134	=134	=134	=134	=134	=134	=134	=134	=134	=134	=134	=134
.	.	8d\L	.	8f/L	.	8aa-X`\L	.	.	.	.	.	.	.	.	.
.	.	8d\	.	8f/	.	8ff`\	.	.	.	.	.	.	.	.	.
.	.	8d\	.	8f/	.	8dd`\	.	.	.	.	.	.	.	.	.
.	.	8d\J	.	8f/J	.	8b-`\J	.	.	.	.	.	.	.	.	.
=135	=135	=135	=135	=135	=135	=135	=135	=135	=135	=135	=135	=135	=135	=135	=135
2r	.	8d\L	.	8f/L	.	8a-/L	.	.	.	.	.	.	.	.	.
.	.	8d\	.	8f/	.	8f/	.	.	.	.	.	.	.	.	.
.	.	8d\	.	8f/	.	8d/	.	.	.	.	.	.	.	.	.
.	.	8d\J	.	8f/J	.	8B-/J	.	.	.	.	.	.	.	.	.
*	*	*Xtremolo	*	*Xtremolo	*	*	*	*	*	*	*	*	*	*	*
=136	=136	=136	=136	=136	=136	=136	=136	=136	=136	=136	=136	=136	=136	=136	=136
!	!	!	!	!	!	!	!	!	!LO:DY:rj	!	!	!	!	!	!
[2E-\	.	4e-\	p	4e-/	p	4e-/	p	[2E-/	p	[2e-\	p	4g/	.	4ee-\	p
.	.	.	.	8qqB-/	.	8qqg/	.	.	.	.	.	.	.	8qqgg/	.
.	.	4E-/	.	8A-/L	.	8f/L	.	.	.	.	.	(8a-/L	.	8ff\L	.
.	.	.	.	16G/L	.	16e-/L	.	.	.	.	.	16g/L	.	16ee-\L	.
.	.	.	.	16A-/JJ	.	16f/JJ	.	.	.	.	.	16a-/JJ)	.	16ff\JJ	.
!	!	!	!	!LO:PB:g=original	!	!LO:LB:g=original	!	!	!	!	!	!	!	!	!
=137	=137	=137	=137	=137	=137	=137	=137	=137	=137	=137	=137	=137	=137	=137	=137
2E-\_	.	[2E-/	.	4B-/	.	4g/	.	2E-/_	.	2e-\_	.	4b-/	.	4gg\	.
.	.	.	.	16qqA-/LL	.	32qqf/LLL	.	.	.	.	.	16qqa-/LL	.	16qqff/LL	.
.	.	.	.	16qqB-/JJ	.	32qqg/JJJ	.	.	.	.	.	16qqb-/JJ	.	16qqgg/JJ	.
!	!	!	!	!	!	!	!	!	!	!	!	!	!	!LO:N:vis=8	!
.	.	.	.	8.c/L	.	(8.a-/L	.	.	.	.	.	(8.cc/L	.	8.aa-\L	.
.	.	.	.	32B-/LL	.	32g/LL	.	.	.	.	.	32b-/LL	.	32gg\LL	.
.	.	.	.	32A-/JJJ	.	32f/JJJ)	.	.	.	.	.	32a-/JJJ)	.	32ff\JJJ	.
!	!	!	!	!	!	!	!	!	!	!	!	!	!	!LO:LB:g=original	!
=138	=138	=138	=138	=138	=138	=138	=138	=138	=138	=138	=138	=138	=138	=138	=138
2E-\_	.	2E-/_	.	4G/	.	4e-/	.	2E-/_	.	2e-\_	.	(4g/	.	4ee-\	.
.	.	.	.	.	.	8qg/	.	.	.	.	.	.	.	8qqgg/	.
.	.	.	.	(4B-/	.	8f/L	.	.	.	.	.	4b-/)	.	8ff\L	.
.	.	.	.	.	.	(16e-/L	.	.	.	.	.	.	.	16ee-\L	.
.	.	.	.	.	.	16f/JJ)	.	.	.	.	.	.	.	16ff\JJ	.
!	!	!	!	!	!	!	!	!	!	!	!	!LO:LB:g=original	!	!	!
=139	=139	=139	=139	=139	=139	=139	=139	=139	=139	=139	=139	=139	=139	=139	=139
2E-\_	.	2E-/_	.	4e-/)	.	(4g/	.	2E-/_	.	2e-\_	.	(4ee-\	.	(4gg\	.
.	.	.	.	4g/	.	4b-/)	.	.	.	.	.	4gg\)	.	4bb-\)	.
=140	=140	=140	=140	=140	=140	=140	=140	=140	=140	=140	=140	=140	=140	=140	=140
2E-\_	.	2E-/_	.	4G/	.	4e-/	.	2E-/_	.	2e-\_	.	4g/	.	4ee-\	.
.	.	.	.	8qqB-/	.	.	.	.	.	.	.	8qqg/	.	8qqgg/	.
.	.	.	.	(8A-/L	.	8f/L	.	.	.	.	.	(8a-/L	.	8ff\L	.
.	.	.	.	16G/L	.	16e-/L	.	.	.	.	.	16g/L	.	16ee-\L	.
.	.	.	.	16A-/JJ)	.	16f/JJ	.	.	.	.	.	16a-/JJ)	.	16ff\JJ	.
=141	=141	=141	=141	=141	=141	=141	=141	=141	=141	=141	=141	=141	=141	=141	=141
2E-\_	.	2E-/_	.	4B-/	.	4g/	.	2E-/_	.	2e-\_	.	4b-/	.	4gg\	.
.	.	.	.	.	.	32qqf/LLL	.	.	.	.	.	16qqa-/LL	.	16qqff/LL	.
.	.	.	.	.	.	32qqg/JJJ	.	.	.	.	.	16qqb-/JJ	.	16qqgg/JJ	.
.	.	.	.	8.c/L	.	(8.a-/L	.	.	.	.	.	(8.cc/L	.	8.aa-\L	.
.	.	.	.	(32B-/LL	.	32g/LL	.	.	.	.	.	32b-/LL	.	(32gg\LL	.
.	.	.	.	32A-/JJJ)	.	32f/JJJ)	.	.	.	.	.	32a-/JJJ)	.	32ff\JJJ)	.
=142	=142	=142	=142	=142	=142	=142	=142	=142	=142	=142	=142	=142	=142	=142	=142
2E-\_	.	2E-/_	.	(4G/	.	4e-/	.	2E-/_	.	2e-\_	.	(4g/	.	4ee-\	.
.	.	.	.	.	.	8qg/	.	.	.	.	.	.	.	8qqgg/	.
.	.	.	.	(4B-/)	.	8f/L	.	.	.	.	.	4b-/)	.	(8ff\L	.
.	.	.	.	.	.	16e-/L	.	.	.	.	.	.	.	16ee-\L	.
.	.	.	.	.	.	16f/JJ	.	.	.	.	.	.	.	16ff\JJ)	.
=143	=143	=143	=143	=143	=143	=143	=143	=143	=143	=143	=143	=143	=143	=143	=143
2E-\]	.	2E-/]	.	4e-/	.	(4g/	.	2E-/]	.	2e-\]	.	(4ee-\	.	(4gg\	.
.	.	.	.	4g/)	.	4b-/)	.	.	.	.	.	4gg\)	.	4bb-\)	.
!	!	!LO:LB:g=original	!	!	!	!	!	!	!	!	!	!	!	!	!
=144	=144	=144	=144	=144	=144	=144	=144	=144	=144	=144	=144	=144	=144	=144	=144
!	!	!	!	!	!	!	!LO:DY:t=for	!LO:N:vis=00	!	!LO:N:vis=00	!	!	!	!	!
4GG/	.	4G/	f	8g\L	.	8g\L	f	0r	.	0r	.	(4ee-\	.	(4ee-\	.
.	.	.	.	8ee-\	.	8ee-\	.	.	.	.	.	.	.	.	.
!	!LO:DY:t=for	!	!	!	!	!	!	!	!	!	!	!	!	!	!
4AA-/	f	4A-/	.	8a-\	f	8a-\	.	.	.	.	.	4ff\)	.	4ff\)	.
.	.	.	.	8ff\J	.	8ff\J	.	.	.	.	.	.	.	.	.
!	!	!	!	!LO:PB:g=original	!	!LO:LB:g=original	!	!	!	!	!	!	!	!	!
=145	=145	=145	=145	=145	=145	=145	=145	=145	=145	=145	=145	=145	=145	=145	=145
4BB-/	.	4B-/	.	8b-\L	.	8b-\L	.	.	.	.	.	(4gg\	.	(4gg\	.
.	.	.	.	8gg\	.	8gg\	.	.	.	.	.	.	.	.	.
4C/	.	4c/	.	8cc\	.	8cc\	.	.	.	.	.	4aa-\)	.	4aa-\)	.
.	.	.	.	8aa-\J	.	8aa-\J	.	.	.	.	.	.	.	.	.
=146	=146	=146	=146	=146	=146	=146	=146	=146	=146	=146	=146	=146	=146	=146	=146
4D\	.	4d\	.	8dd\L	.	8dd\L	.	.	.	.	.	(4bb-\	.	(4bb-\	.
.	.	.	.	8bb-\	.	8bb-\	.	.	.	.	.	.	.	.	.
4E-\	.	4e-\	.	8ee-\	.	8ee-\	.	.	.	.	.	4ccc\)	.	4ccc\)	.
.	.	.	.	8ccc\J	.	8ccc\J	.	.	.	.	.	.	.	.	.
=147	=147	=147	=147	=147	=147	=147	=147	=147	=147	=147	=147	=147	=147	=147	=147
4F\	.	4f\	.	8ff\L	.	8ff\L	.	.	.	.	.	(4ddd\	.	4ddd\	.
.	.	.	.	8ddd\	.	8ddd\	.	.	.	.	.	.	.	.	.
4G\	.	4g\	.	8gg\	.	8gg\	.	.	.	.	.	4eee-\)	.	4eee-\	.
.	.	.	.	8eee-\J	.	8eee-\J	.	.	.	.	.	.	.	.	.
!LO:LB:g=original	!	!	!	!	!	!	!	!	!	!	!	!	!	!	!
=148	=148	=148	=148	=148	=148	=148	=148	=148	=148	=148	=148	=148	=148	=148	=148
!	!	!	!	!	!	!	!	!LO:N:vis=0	!	!LO:N:vis=0	!	!	!	!	!
8A-\L	.	8a-\L	.	8ccc\L	.	8ccc\L	.	1r	.	1r	.	8ccc\L	.	8ccc\L	.
8G\	.	8g\	.	8bb-\	.	8bb-\	.	.	.	.	.	8bb-\	.	8bb-\	.
8F\	.	8f\	.	8aa-\	.	8aa-\	.	.	.	.	.	8aa-\	.	8aa-\	.
8E-\J	.	8e-\J	.	8gg\J	.	8gg\J	.	.	.	.	.	8gg\J	.	8gg\J	.
!	!	!	!	!	!	!	!	!	!	!	!	!	!	!LO:LB:g=original	!
=149	=149	=149	=149	=149	=149	=149	=149	=149	=149	=149	=149	=149	=149	=149	=149
8D/L	.	8d/L	.	8ff\L	.	8ff\L	.	.	.	.	.	8ff\L	.	8ff\L	.
8C/	.	8c/	.	8ee-\	.	8ee-\	.	.	.	.	.	8ee-\	.	8ee-\	.
8BB-/	.	8B-/	.	8dd\	.	8dd\	.	.	.	.	.	8dd\	.	8dd\	.
!	!	!LO:SIC:s:o=:v: kasownik? pod nutą	!	!	!	!	!	!	!	!	!	!	!	!	!
8AAn/J	.	8An/J	.	8cc\J	.	8cc\J	.	.	.	.	.	8cc\J	.	8cc\J	.
!	!	!	!	!	!	!	!	!	!	!	!	!LO:LB:g=original	!	!	!
=150	=150	=150	=150	=150	=150	=150	=150	=150	=150	=150	=150	=150	=150	=150	=150
*tremolo	*	*tremolo	*	*	*	*	*	*	*	*	*	*	*	*	*
8BB-/L	.	8B-/L	.	8b-\	.	4b-\	.	4e-\	.	4g\	f	8b-\	.	8b-\L	.
8BB-/	.	8B-/	.	4ee-\	.	.	.	.	.	.	.	4ee-\	.	8gg\J	.
8BB-/	.	8B-/	.	.	.	4ffT\	.	8.B-/L	.	8.f\L	.	.	.	4ffT\	.
8BB-/J	.	8B-/J	.	8dd\	.	.	.	.	.	.	.	8ddt\	.	.	.
.	.	.	.	.	.	.	.	16B-/Jk	.	16f\Jk	.	.	.	.	.
*Xtremolo	*	*Xtremolo	*	*	*	*	*	*	*	*	*	*	*	*	*
!	!	!	!	!	!	!	!	!LO:LB:g=original	!	!	!	!	!	!	!
=151	=151	=151	=151	=151	=151	=151	=151	=151	=151	=151	=151	=151	=151	=151	=151
!LO:TX:a:t=P:problem=mixed beam	!	!LO:TX:a:t=P:problem=mixed beam	!	!	!	!	!	!	!	!	!	!	!	!	!
8EE-/L	.	8E-/L	.	4ee-\	.	4ee-\	.	2r	.	4e-\	.	4ee-\	.	4ee-\	.
8E-\	.	8f\	.	.	.	.	.	.	.	.	.	.	.	.	.
8G\	.	8a-\	.	4r	.	4r	.	.	.	4r	.	4r	.	4r	.
8E-\J	.	8f\J	.	.	.	.	.	.	.	.	.	.	.	.	.
=152	=152	=152	=152	=152	=152	=152	=152	=152	=152	=152	=152	=152	=152	=152	=152
.	.	.	.	.	.	4qqb-/	f	.	.	.	.	.	.	.	.
8F\L	f	8f\L	f	8d/L	.	4.a-\	.	[2B-/	f	[2b-\	f	4.aa-\	.	4.ddd\	f
8D\	.	8d\	.	8f/	f	.	.	.	.	.	.	.	.	.	.
8BB-\	p	8B-\	p	8a-/	.	.	.	.	.	.	.	.	.	.	.
8D\J	.	8d\J	.	8f/J	.	8f/	p	.	.	.	.	8aa-\	.	8fff\	.
!	!	!	!	!LO:PB:g=original	!	!	!	!	!	!	!	!	!	!	!
=153	=153	=153	=153	=153	=153	=153	=153	=153	=153	=153	=153	=153	=153	=153	=153
8E-/L	.	8e-\L	.	8g/	p	8g/	.	2B-/_	p	2b-\_	p	2gg\	.	2eee-\	.
8BB-/	.	8B-\	.	8r	.	8r	.	.	.	.	.	.	.	.	.
8GG/	.	8G\	.	8e-/	.	8e-/	.	.	.	.	.	.	.	.	.
8E-/J	.	8e-\J	.	8r	.	8r	.	.	.	.	.	.	.	.	.
!	!	!	!	!	!	!LO:LB:g=original	!	!	!	!LO:LB:g=original	!	!	!	!	!
=154	=154	=154	=154	=154	=154	=154	=154	=154	=154	=154	=154	=154	=154	=154	=154
.	.	.	.	.	.	4qqb-\	.	.	.	.	.	.	.	.	.
8F\L	f	8f\L	f	8d/L	.	4.a-\	f	2B-/_	f	2b-\_	p	4.aa-\	.	4.ddd\	f
8D\	.	8d\	.	8f/	.	.	.	.	.	.	.	.	.	.	.
8BB-\	p	8B-\	p	8a-/	f	.	.	.	.	.	.	.	.	.	.
8D\J	.	8d\J	.	8f/J	.	8f/	p	.	.	.	.	8aa-\	.	8fff\	p
=155	=155	=155	=155	=155	=155	=155	=155	=155	=155	=155	=155	=155	=155	=155	=155
8E-/L	.	8e-\L	.	8g/	.	8g/	.	2B-/_	p	2b-\_	f	2gg\	.	2eee-\	.
8BB-/	.	8B-\	.	8r	p	8r	.	.	.	.	.	.	.	.	.
8GG/	.	8G\	.	8g/	.	8ee-\	.	.	.	.	.	.	.	.	.
8E-/J	.	8e-\J	.	8r	.	8r	.	.	.	.	.	.	.	.	.
!LO:PB:g=original	!	!LO:PB:g=original	!	!	!	!	!	!	!	!	!	!	!	!	!
=156	=156	=156	=156	=156	=156	=156	=156	=156	=156	=156	=156	=156	=156	=156	=156
.	.	.	.	.	.	4qqb-/	f	.	.	.	.	.	.	.	.
8F/L	.	8f\L	f	8d/L	.	4.a-\	.	2B-/_	f	2b-\_	p	4.aa-\	.	4.ddd\	f
8D/	.	8d\	.	8f/	.	.	.	.	.	.	.	.	.	.	.
8BB-/	f	8B-\	p	8a-/	.	.	.	.	.	.	.	.	.	.	.
8D/J	p	8d\J	.	8f/J	f	8f/	.	.	.	.	.	8aa-\	.	8fff\	p
=157	=157	=157	=157	=157	=157	=157	=157	=157	=157	=157	=157	=157	=157	=157	=157
8E-/L	.	8e-\L	.	8e-/	.	8g/	p	2B-/_	p	2b-\_	f	2gg\	.	2eee-\	.
8BB-/	.	8B-\	.	8r	.	8r	.	.	.	.	.	.	.	.	.
8GG/	.	8G\	.	8e-/	p	8e-/	.	.	.	.	.	.	.	.	.
8E-/J	.	8e-\J	.	8r	.	8r	.	.	.	.	.	.	.	.	.
=158	=158	=158	=158	=158	=158	=158	=158	=158	=158	=158	=158	=158	=158	=158	=158
.	.	.	.	.	.	4qqb-/	f	.	.	.	.	.	.	.	.
8F/L	.	8f\L	f	8d/L	.	4.a-/	.	2B-/_	f	2b-\_	p	4.aa-\	.	4.ddd\	f
8D/	f	8d\	.	8f/	.	.	.	.	.	.	.	.	.	.	.
8BB-/	p	8B-\	p	8a-/	.	.	.	.	.	.	.	.	.	.	.
8D/J	.	8d\J	.	8f/J	f	8f/	p	.	.	.	.	8aa-\	.	8fff\	p
=159	=159	=159	=159	=159	=159	=159	=159	=159	=159	=159	=159	=159	=159	=159	=159
8E-/L	.	8e-/L	.	8g/	p	8g/	.	2B-/]	p	2b-\]	.	2gg\	.	2eee-\	.
8BB-/	.	8B-/	.	8r	.	8r	.	.	.	.	.	.	.	.	.
8GG/	.	8G/	.	8g/	.	8ee-\	.	.	.	.	.	.	.	.	.
8EE-/J	.	8E-/J	.	8r	.	8r	.	.	.	.	.	.	.	.	.
!	!	!	!	!LO:PB:g=original	!	!	!	!	!	!	!	!	!	!	!
=160	=160	=160	=160	=160	=160	=160	=160	=160	=160	=160	=160	=160	=160	=160	=160
!	!	!	!	!	!	!	!LO:DY:t=for	!	!	!	!	!	!	!	!
4GG/	.	4G/	f	8G/L	.	8G/L	f	4G/	f	4e-\	f	(4ee-\	f	(4ee-\	.
.	.	.	.	8e-/	.	8e-/	.	.	.	.	.	.	.	.	.
4AA-/	f	4A-/	.	8c/	.	8A-/	.	4r	.	4r	.	4ff\	.	4ff\)	.
.	.	.	.	8f/J	.	8f/J	.	.	.	.	.	.	.	.	.
!	!	!	!	!	!	!	!	!	!	!	!	!	!	!LO:LB:g=original	!
=161	=161	=161	=161	=161	=161	=161	=161	=161	=161	=161	=161	=161	=161	=161	=161
!	!	!	!	!	!	!	!	!LO:N:vis=00	!	!LO:N:vis=00	!	!	!	!	!
4BB-/	.	4B-/	.	8B-/L	.	8B-/L	.	0r	.	0r	.	4gg\	.	(4gg\	.
.	.	.	.	8g/J	.	8g/	.	.	.	.	.	.	.	.	.
4C/	.	4c/	.	8c/L	.	8c/	.	.	.	.	.	4aa-\)	.	4aa-\)	.
.	.	.	.	8a-/J	.	8a-/J	.	.	.	.	.	.	.	.	.
!	!	!	!	!	!	!LO:LB:g=original	!	!	!	!	!	!LO:LB:g=original	!	!	!
=162	=162	=162	=162	=162	=162	=162	=162	=162	=162	=162	=162	=162	=162	=162	=162
!	!	!	!	!	!	!LO:TX:a:t=P:problem=mixed beam	!	!	!	!	!	!	!	!	!
4D\	.	4d\	.	8d/L	.	8d/L	.	.	.	.	.	(4bb-\	.	(4bb-\	.
.	.	.	.	8b-/J	.	8b-\J	.	.	.	.	.	.	.	.	.
!	!	!	!	!	!	!LO:TX:a:t=P:problem=mixed beam	!	!	!	!	!	!	!	!	!
4E-\	.	4e-\	.	8e-/L	.	8e-/L	.	.	.	.	.	4ccc\	.	4ccc\)	.
.	.	.	.	8cc/J	.	8cc\J	.	.	.	.	.	.	.	.	.
=163	=163	=163	=163	=163	=163	=163	=163	=163	=163	=163	=163	=163	=163	=163	=163
4F\	.	4f\	.	8f/L	.	8f\L	.	.	.	.	.	4ddd\	.	(4ddd\	.
.	.	.	.	8dd/J	.	8dd\	.	.	.	.	.	.	.	.	.
4G\	.	4g\	.	8g/L	.	8g\	.	.	.	.	.	4eee-\)	.	4eee-\)	.
.	.	.	.	8ee-/J	.	8ee-\J	.	.	.	.	.	.	.	.	.
=164	=164	=164	=164	=164	=164	=164	=164	=164	=164	=164	=164	=164	=164	=164	=164
8A-\L	.	8a-\L	.	8cc/L	.	8cc\L	.	.	.	.	.	8ccc\L	.	8ccc\L	.
8G\	.	8g\	.	8b-/	.	8b-\	.	.	.	.	.	8bb-\	.	8bb-\	.
8F\	.	8f\	.	8a-/	.	8a-\	.	.	.	.	.	8aa-\	.	8aa-\	.
8E-\J	.	8e-\J	.	8g/J	.	8g\J	.	.	.	.	.	8gg\J	.	8gg\J	.
!LO:PB:g=original	!	!	!	!	!	!	!	!	!	!	!	!	!	!	!
=165	=165	=165	=165	=165	=165	=165	=165	=165	=165	=165	=165	=165	=165	=165	=165
8D/L	.	8d/L	.	8f/L	.	8f/L	.	2r	.	2r	.	8ff\L	.	8ff\L	.
8C/	.	8c/	.	8e-/	.	8e-/	.	.	.	.	.	8ee-\	.	8ee-\	.
8BB-/	.	8B-/	.	8d/	.	8d/	.	.	.	.	.	8dd\	.	8dd\	.
8AAn/J	.	8An/J	.	8c/J	.	8c/J	.	.	.	.	.	8cc\J	.	8cc\J	.
!	!	!LO:LB:g=original	!	!	!	!	!	!	!	!	!	!	!	!	!
=166	=166	=166	=166	=166	=166	=166	=166	=166	=166	=166	=166	=166	=166	=166	=166
*tremolo	*	*tremolo	*	*	*	*	*	*	*	*	*	*	*	*	*
8BB-/L	.	8B-/L	.	8B-/	.	4B-/	.	4e-\	.	4g\	.	8b-\	.	8b-\L	.
8BB-/	.	8B-/	.	4e-/	.	.	.	.	.	.	.	4ee-\	.	8gg\J	.
8BB-/	.	8B-/	.	.	.	4fT/	.	8.B-/L	.	8.f\L	.	.	.	4ffT\	.
8BB-/J	.	8B-/J	.	8dt/	.	.	.	.	.	.	.	8ddt\	.	.	.
.	.	.	.	.	.	.	.	16B-/Jk	.	16f\Jk	.	.	.	.	.
*Xtremolo	*	*Xtremolo	*	*	*	*	*	*	*	*	*	*	*	*	*
!	!	!	!	!LO:PB:g=original	!	!	!	!	!	!	!	!	!	!	!
=167	=167	=167	=167	=167	=167	=167	=167	=167	=167	=167	=167	=167	=167	=167	=167
8E-\L	.	8e-\L	.	8e-/	.	8e-/L	.	4G/	.	4e-\	.	8ee-\L	.	8ee-\L	.
8E-\	.	8e-\	.	8G/L 8e-/	.	8G/ 8e-/	.	.	.	.	.	8ee-\	.	8ee-\	.
8E-\	.	8e-\	.	8G/ 8e-/	.	8G/ 8e-/	.	8.G/L	.	8.e-\L	.	8ee-\	.	8ee-\	.
8E-\J	.	8e-\J	.	8G/J 8e-/	.	8G/J 8e-/	.	.	.	.	.	8ee-\J	.	8ee-\J	.
.	.	.	.	.	.	.	.	16G/Jk	.	16e-\Jk	.	.	.	.	.
!	!	!	!	!	!	!	!	!LO:LB:g=original	!	!	!	!	!	!	!
=168	=168	=168	=168	=168	=168	=168	=168	=168	=168	=168	=168	=168	=168	=168	=168
4E-\	.	4e-\	.	4G/ 4e-/	.	4G/ 4e-/	.	4G/	.	4e-\	.	4ee-\	.	4ee-\	.
4r	.	4r	.	4r	.	4r	.	4r	.	4r	.	4r	.	4r	.
==	==	==	==	==	==	==	==	==	==	==	==	==	==	==	==
*-	*-	*-	*-	*-	*-	*-	*-	*-	*-	*-	*-	*-	*-	*-	*-
!!!system-decoration: [(s1,s2)][(s3,s4)][(s5,s6,s7,s8)]
!!!RDF**kern: > = above
!!!RDF**kern: < = below
!!!RDF**dynam: p = p&colon;
!!!RDF**dynam: < = creſ.
!!!EED: Leszek Kubiak
!!!EST: 2020-10-09
!!!ENC: Berenika Jozajtis
!!!END: 2020-06-04
